;-- START GCODE --
;Sliced for Type A Machines Series 1
;Sliced at: Sat 31-10-2015 15:56:00
;Basic settings: Layer height: 0.15 Walls: 0.8 Fill: 25
;Print Speed: 100 Support: 0
;Retraction Speed: 60 Retraction Distance: 1.4
;Print time: 1 hour 5 minutes
;Filament used: 4.273m 12.0g
;Filament cost: None
G21        ;metric values
G90        ;absolute positioning
G28     ;move to endstops
G29		;allows for auto-levelling
G1 X150 Y5  Z15.0 F12000 ;center and move the platform down 15mm
M140 S70 ;Prep Heat Bed
M109 S220 ;Heat To temp
M190 S70 ;Heat Bed to temp
G1 X150 Y5 Z0.3 ;move the platform to purge extrusion
G92 E0 ;zero the extruded length
G1 F200 X250 E30 ;extrude 30mm of feed stock
G92 E0 ;zero the extruded length again
G1 X150 Y150  Z25 F12000 ;recenter and begin
G1 F12000

;Layer count: 309
;LAYER:-2
;RAFT
G0 F12000 X143.638 Y101.469 Z0.300
;TYPE:SUPPORT
G1 F2700 X173.513 Y101.469 E2.60832
G1 X173.513 Y142.869 E6.22287
G1 X176.038 Y142.869 E6.44332
G1 X176.038 Y166.669 E8.52125
G1 X162.738 Y166.669 E9.68244
G1 X162.738 Y166.268 E9.71745
G1 X154.238 Y166.268 E10.45957
G1 X154.238 Y166.669 E10.49458
G1 X141.138 Y166.669 E11.63831
G1 X141.138 Y142.869 E13.71624
G1 X143.638 Y142.869 E13.93451
G1 X143.638 Y101.469 E17.54905
G0 F12000 X144.500 Y101.364
G1 F2700 X144.500 Y166.774 E23.25986
G0 F12000 X143.500 Y166.774
G1 F2700 X143.500 Y142.764 E25.35612
G0 F12000 X142.500 Y142.764
G1 F2700 X142.500 Y166.774 E27.45238
G0 F12000 X141.500 Y166.774
G1 F2700 X141.500 Y142.764 E29.54864
G0 F12000 X145.500 Y166.774
G1 F2700 X145.500 Y101.364 E35.25945
G0 F12000 X146.500 Y101.364
G1 F2700 X146.500 Y166.774 E40.97026
G0 F12000 X147.500 Y166.774
G1 F2700 X147.500 Y101.364 E46.68107
G0 F12000 X148.500 Y101.364
G1 F2700 X148.500 Y166.774 E52.39187
G0 F12000 X149.500 Y166.774
G1 F2700 X149.500 Y101.364 E58.10268
G0 F12000 X150.500 Y101.364
G1 F2700 X150.500 Y166.774 E63.81349
G0 F12000 X151.500 Y166.774
G1 F2700 X151.500 Y101.364 E69.52429
G0 F12000 X152.500 Y101.364
G1 F2700 X152.500 Y166.774 E75.23510
G0 F12000 X153.500 Y166.774
G1 F2700 X153.500 Y101.364 E80.94591
G0 F12000 X154.500 Y101.364
G1 F2700 X154.500 Y166.373 E86.62170
G0 F12000 X155.500 Y166.373
G1 F2700 X155.500 Y101.364 E92.29750
G0 F12000 X156.500 Y101.364
G1 F2700 X156.500 Y166.373 E97.97329
G0 F12000 X157.500 Y166.373
G1 F2700 X157.500 Y101.364 E103.64909
G0 F12000 X158.500 Y101.364
G1 F2700 X158.500 Y166.373 E109.32489
G0 F12000 X159.500 Y166.373
G1 F2700 X159.500 Y101.364 E115.00068
G0 F12000 X160.500 Y101.364
G1 F2700 X160.500 Y166.373 E120.67648
G0 F12000 X161.500 Y166.373
G1 F2700 X161.500 Y101.364 E126.35228
G0 F12000 X162.500 Y101.364
G1 F2700 X162.500 Y166.373 E132.02807
G0 F12000 X163.500 Y166.774
G1 F2700 X163.500 Y101.364 E137.73888
G0 F12000 X164.500 Y101.364
G1 F2700 X164.500 Y166.774 E143.44969
G0 F12000 X165.500 Y166.774
G1 F2700 X165.500 Y101.364 E149.16049
G0 F12000 X166.500 Y101.364
G1 F2700 X166.500 Y166.774 E154.87130
G0 F12000 X167.500 Y166.774
G1 F2700 X167.500 Y101.364 E160.58211
G0 F12000 X168.500 Y101.364
G1 F2700 X168.500 Y166.774 E166.29291
G0 F12000 X169.500 Y166.774
G1 F2700 X169.500 Y101.364 E172.00372
G0 F12000 X170.500 Y101.364
G1 F2700 X170.500 Y166.774 E177.71453
G0 F12000 X171.500 Y166.774
G1 F2700 X171.500 Y101.364 E183.42533
G0 F12000 X172.500 Y101.364
G1 F2700 X172.500 Y166.774 E189.13614
G0 F12000 X173.500 Y166.774
G1 F2700 X173.500 Y101.364 E194.84695
G0 F12000 X174.500 Y142.764
G1 F2700 X174.500 Y166.774 E196.94321
G0 F12000 X175.500 Y166.774
G1 F2700 X175.500 Y142.764 E199.03947
;LAYER:-1
;RAFT
G0 F12000 X175.366 Y142.839 Z0.500
;TYPE:SUPPORT
G1 F2700 X176.067 Y143.540 E199.05596
G0 F12000 X176.067 Y144.106
G1 F2700 X174.800 Y142.839 E199.08575
G0 F12000 X174.234 Y142.839
G1 F2700 X176.067 Y144.671 E199.12885
G0 F12000 X176.067 Y145.237
G1 F2700 X173.668 Y142.839 E199.18526
G0 F12000 X173.542 Y142.712
G1 F2700 X143.607 Y112.777 E199.88929
G0 F12000 X143.607 Y113.342
G1 F2700 X176.067 Y145.803 E200.65271
G0 F12000 X176.067 Y146.368
G1 F2700 X143.607 Y113.908 E201.41612
G0 F12000 X143.607 Y114.474
G1 F2700 X176.067 Y146.934 E202.17953
G0 F12000 X176.067 Y147.500
G1 F2700 X143.607 Y115.039 E202.94295
G0 F12000 X143.607 Y115.605
G1 F2700 X176.067 Y148.066 E203.70637
G0 F12000 X176.067 Y148.631
G1 F2700 X143.607 Y116.171 E204.46978
G0 F12000 X143.607 Y116.736
G1 F2700 X176.067 Y149.197 E205.23320
G0 F12000 X176.067 Y149.763
G1 F2700 X143.607 Y117.302 E205.99662
G0 F12000 X143.607 Y117.868
G1 F2700 X176.067 Y150.328 E206.76003
G0 F12000 X176.067 Y150.894
G1 F2700 X143.607 Y118.434 E207.52344
G0 F12000 X143.607 Y118.999
G1 F2700 X176.067 Y151.460 E208.28686
G0 F12000 X176.067 Y152.025
G1 F2700 X143.607 Y119.565 E209.05027
G0 F12000 X143.607 Y112.211
G1 F2700 X173.542 Y142.146 E209.75430
G0 F12000 X173.542 Y141.581
G1 F2700 X143.607 Y111.645 E210.45833
G0 F12000 X143.607 Y111.080
G1 F2700 X173.542 Y141.015 E211.16236
G0 F12000 X173.542 Y140.449
G1 F2700 X143.607 Y110.514 E211.86638
G0 F12000 X143.607 Y109.948
G1 F2700 X173.542 Y139.884 E212.57042
G0 F12000 X173.542 Y139.318
G1 F2700 X143.607 Y109.383 E213.27445
G0 F12000 X143.607 Y108.817
G1 F2700 X173.542 Y138.752 E213.97847
G0 F12000 X173.542 Y138.187
G1 F2700 X143.607 Y108.251 E214.68251
G0 F12000 X143.607 Y107.685
G1 F2700 X173.542 Y137.621 E215.38655
G0 F12000 X173.542 Y137.055
G1 F2700 X143.607 Y107.120 E216.09057
G0 F12000 X143.607 Y106.554
G1 F2700 X173.542 Y136.489 E216.79460
G0 F12000 X173.542 Y135.924
G1 F2700 X143.607 Y105.988 E217.49863
G0 F12000 X143.607 Y105.423
G1 F2700 X173.542 Y135.358 E218.20266
G0 F12000 X173.542 Y134.792
G1 F2700 X143.607 Y104.857 E218.90668
G0 F12000 X143.607 Y104.291
G1 F2700 X173.542 Y134.227 E219.61072
G0 F12000 X173.542 Y133.661
G1 F2700 X143.607 Y103.726 E220.31475
G0 F12000 X143.607 Y103.160
G1 F2700 X173.542 Y133.095 E221.01877
G0 F12000 X173.542 Y132.530
G1 F2700 X143.607 Y102.594 E221.72281
G0 F12000 X143.607 Y102.029
G1 F2700 X173.542 Y131.964 E222.42683
G0 F12000 X173.542 Y131.398
G1 F2700 X143.607 Y101.463 E223.13086
G0 F12000 X144.148 Y101.439
G1 F2700 X173.542 Y130.833 E223.82216
G0 F12000 X173.542 Y130.267
G1 F2700 X144.714 Y101.439 E224.50015
G0 F12000 X145.280 Y101.439
G1 F2700 X173.542 Y129.701 E225.16483
G0 F12000 X173.542 Y129.136
G1 F2700 X145.845 Y101.439 E225.81622
G0 F12000 X146.411 Y101.439
G1 F2700 X173.542 Y128.570 E226.45430
G0 F12000 X173.542 Y128.004
G1 F2700 X146.977 Y101.439 E227.07907
G0 F12000 X147.542 Y101.439
G1 F2700 X173.542 Y127.439 E227.69055
G0 F12000 X173.542 Y126.873
G1 F2700 X148.108 Y101.439 E228.28872
G0 F12000 X148.674 Y101.439
G1 F2700 X173.542 Y126.307 E228.87357
G0 F12000 X173.542 Y125.741
G1 F2700 X149.239 Y101.439 E229.44513
G0 F12000 X149.805 Y101.439
G1 F2700 X173.542 Y125.176 E230.00339
G0 F12000 X173.542 Y124.610
G1 F2700 X150.371 Y101.439 E230.54834
G0 F12000 X150.936 Y101.439
G1 F2700 X173.542 Y124.044 E231.07998
G0 F12000 X173.542 Y123.479
G1 F2700 X151.502 Y101.439 E231.59833
G0 F12000 X152.068 Y101.439
G1 F2700 X173.542 Y122.913 E232.10337
G0 F12000 X173.542 Y122.347
G1 F2700 X152.633 Y101.439 E232.59510
G0 F12000 X153.199 Y101.439
G1 F2700 X173.542 Y121.782 E233.07354
G0 F12000 X173.542 Y121.216
G1 F2700 X153.765 Y101.439 E233.53866
G0 F12000 X154.331 Y101.439
G1 F2700 X173.542 Y120.650 E233.99048
G0 F12000 X173.542 Y120.085
G1 F2700 X154.896 Y101.439 E234.42900
G0 F12000 X155.462 Y101.439
G1 F2700 X173.542 Y119.519 E234.85421
G0 F12000 X173.542 Y118.953
G1 F2700 X156.028 Y101.439 E235.26612
G0 F12000 X156.593 Y101.439
G1 F2700 X173.542 Y118.388 E235.66473
G0 F12000 X173.542 Y117.822
G1 F2700 X157.159 Y101.439 E236.05003
G0 F12000 X157.725 Y101.439
G1 F2700 X173.542 Y117.256 E236.42203
G0 F12000 X173.542 Y116.691
G1 F2700 X158.290 Y101.439 E236.78073
G0 F12000 X158.856 Y101.439
G1 F2700 X173.542 Y116.125 E237.12612
G0 F12000 X173.542 Y115.559
G1 F2700 X159.422 Y101.439 E237.45820
G0 F12000 X159.987 Y101.439
G1 F2700 X173.542 Y114.993 E237.77698
G0 F12000 X173.542 Y114.428
G1 F2700 X160.553 Y101.439 E238.08247
G0 F12000 X161.119 Y101.439
G1 F2700 X173.542 Y113.862 E238.37464
G0 F12000 X173.542 Y113.296
G1 F2700 X161.684 Y101.439 E238.65351
G0 F12000 X162.250 Y101.439
G1 F2700 X173.542 Y112.731 E238.91908
G0 F12000 X173.542 Y112.165
G1 F2700 X162.816 Y101.439 E239.17134
G0 F12000 X163.381 Y101.439
G1 F2700 X173.542 Y111.599 E239.41029
G0 F12000 X173.542 Y111.034
G1 F2700 X163.947 Y101.439 E239.63595
G0 F12000 X164.513 Y101.439
G1 F2700 X173.542 Y110.468 E239.84830
G0 F12000 X173.542 Y109.902
G1 F2700 X165.079 Y101.439 E240.04734
G0 F12000 X165.644 Y101.439
G1 F2700 X173.542 Y109.337 E240.23309
G0 F12000 X173.542 Y108.771
G1 F2700 X166.210 Y101.439 E240.40553
G0 F12000 X166.776 Y101.439
G1 F2700 X173.542 Y108.205 E240.56465
G0 F12000 X173.542 Y107.640
G1 F2700 X167.341 Y101.439 E240.71049
G0 F12000 X167.907 Y101.439
G1 F2700 X173.542 Y107.074 E240.84302
G0 F12000 X173.542 Y106.508
G1 F2700 X168.473 Y101.439 E240.96223
G0 F12000 X169.038 Y101.439
G1 F2700 X173.542 Y105.942 E241.06815
G0 F12000 X173.542 Y105.377
G1 F2700 X169.604 Y101.439 E241.16076
G0 F12000 X170.170 Y101.439
G1 F2700 X173.542 Y104.811 E241.24007
G0 F12000 X173.542 Y104.245
G1 F2700 X170.735 Y101.439 E241.30607
G0 F12000 X171.301 Y101.439
G1 F2700 X173.542 Y103.680 E241.35878
G0 F12000 X173.542 Y103.114
G1 F2700 X171.867 Y101.439 E241.39817
G0 F12000 X172.432 Y101.439
G1 F2700 X173.542 Y102.548 E241.42426
G0 F12000 X173.542 Y101.983
G1 F2700 X172.998 Y101.439 E241.43706
G0 F12000 X143.607 Y120.131
G1 F2700 X176.067 Y152.591 E242.20047
G0 F12000 X176.067 Y153.157
G1 F2700 X143.607 Y120.696 E242.96389
G0 F12000 X143.607 Y121.262
G1 F2700 X176.067 Y153.722 E243.72730
G0 F12000 X176.067 Y154.288
G1 F2700 X143.607 Y121.828 E244.49071
G0 F12000 X143.607 Y122.393
G1 F2700 X176.067 Y154.854 E245.25413
G0 F12000 X176.067 Y155.419
G1 F2700 X143.607 Y122.959 E246.01754
G0 F12000 X143.607 Y123.525
G1 F2700 X176.067 Y155.985 E246.78095
G0 F12000 X176.067 Y156.551
G1 F2700 X143.607 Y124.090 E247.54437
G0 F12000 X143.607 Y124.656
G1 F2700 X176.067 Y157.117 E248.30779
G0 F12000 X176.067 Y157.682
G1 F2700 X143.607 Y125.222 E249.07120
G0 F12000 X143.607 Y125.787
G1 F2700 X176.067 Y158.248 E249.83462
G0 F12000 X176.067 Y158.814
G1 F2700 X143.607 Y126.353 E250.59804
G0 F12000 X143.607 Y126.919
G1 F2700 X176.067 Y159.379 E251.36145
G0 F12000 X176.067 Y159.945
G1 F2700 X143.607 Y127.484 E252.12487
G0 F12000 X143.607 Y128.050
G1 F2700 X176.067 Y160.511 E252.88829
G0 F12000 X176.067 Y161.076
G1 F2700 X143.607 Y128.616 E253.65170
G0 F12000 X143.607 Y129.182
G1 F2700 X176.067 Y161.642 E254.41511
G0 F12000 X176.067 Y162.208
G1 F2700 X143.607 Y129.747 E255.17853
G0 F12000 X143.607 Y130.313
G1 F2700 X176.067 Y162.773 E255.94194
G0 F12000 X176.067 Y163.339
G1 F2700 X143.607 Y130.879 E256.70535
G0 F12000 X143.607 Y131.444
G1 F2700 X176.067 Y163.905 E257.46877
G0 F12000 X176.067 Y164.470
G1 F2700 X143.607 Y132.010 E258.23218
G0 F12000 X143.607 Y132.576
G1 F2700 X176.067 Y165.036 E258.99559
G0 F12000 X176.067 Y165.602
G1 F2700 X143.607 Y133.141 E259.75901
G0 F12000 X143.607 Y133.707
G1 F2700 X176.067 Y166.167 E260.52242
G0 F12000 X176.032 Y166.698
G1 F2700 X143.607 Y134.273 E261.28501
G0 F12000 X143.607 Y134.838
G1 F2700 X175.466 Y166.698 E262.03430
G0 F12000 X174.900 Y166.698
G1 F2700 X143.607 Y135.404 E262.77027
G0 F12000 X143.607 Y135.970
G1 F2700 X174.335 Y166.698 E263.49295
G0 F12000 X173.769 Y166.698
G1 F2700 X143.607 Y136.535 E264.20232
G0 F12000 X143.607 Y137.101
G1 F2700 X173.203 Y166.698 E264.89839
G0 F12000 X172.637 Y166.698
G1 F2700 X143.607 Y137.667 E265.58114
G0 F12000 X143.607 Y138.233
G1 F2700 X172.072 Y166.698 E266.25059
G0 F12000 X171.506 Y166.698
G1 F2700 X143.607 Y138.798 E266.90675
G0 F12000 X143.607 Y139.364
G1 F2700 X170.940 Y166.698 E267.54959
G0 F12000 X170.375 Y166.698
G1 F2700 X143.607 Y139.930 E268.17913
G0 F12000 X143.607 Y140.495
G1 F2700 X169.809 Y166.698 E268.79537
G0 F12000 X169.243 Y166.698
G1 F2700 X143.607 Y141.061 E269.39830
G0 F12000 X143.607 Y141.627
G1 F2700 X168.678 Y166.698 E269.98794
G0 F12000 X168.112 Y166.698
G1 F2700 X143.607 Y142.192 E270.56427
G0 F12000 X143.607 Y142.758
G1 F2700 X167.546 Y166.698 E271.12729
G0 F12000 X166.981 Y166.698
G1 F2700 X143.121 Y142.839 E271.68843
G0 F12000 X142.556 Y142.839
G1 F2700 X166.415 Y166.698 E272.24955
G0 F12000 X165.849 Y166.698
G1 F2700 X141.990 Y142.839 E272.81068
G0 F12000 X141.424 Y142.839
G1 F2700 X165.284 Y166.698 E273.37182
G0 F12000 X164.718 Y166.698
G1 F2700 X141.107 Y143.087 E273.92711
G0 F12000 X141.107 Y143.652
G1 F2700 X164.152 Y166.698 E274.46911
G0 F12000 X163.587 Y166.698
G1 F2700 X141.107 Y144.218 E274.99780
G0 F12000 X141.107 Y144.784
G1 F2700 X162.620 Y166.297 E275.50376
G0 F12000 X162.707 Y166.384
G1 F2700 X163.021 Y166.698 E275.51114
G0 F12000 X162.054 Y166.297
G1 F2700 X141.107 Y145.350 E276.00378
G0 F12000 X141.107 Y145.915
G1 F2700 X161.489 Y166.297 E276.48314
G0 F12000 X160.923 Y166.297
G1 F2700 X141.107 Y146.481 E276.94918
G0 F12000 X141.107 Y147.047
G1 F2700 X160.357 Y166.297 E277.40191
G0 F12000 X159.791 Y166.297
G1 F2700 X141.107 Y147.612 E277.84134
G0 F12000 X141.107 Y148.178
G1 F2700 X159.226 Y166.297 E278.26747
G0 F12000 X158.660 Y166.297
G1 F2700 X141.107 Y148.744 E278.68029
G0 F12000 X141.107 Y149.309
G1 F2700 X158.094 Y166.297 E279.07981
G0 F12000 X157.529 Y166.297
G1 F2700 X141.107 Y149.875 E279.46603
G0 F12000 X141.107 Y150.441
G1 F2700 X156.963 Y166.297 E279.83894
G0 F12000 X156.397 Y166.297
G1 F2700 X141.107 Y151.006 E280.19855
G0 F12000 X141.107 Y151.572
G1 F2700 X155.832 Y166.297 E280.54486
G0 F12000 X155.266 Y166.297
G1 F2700 X141.107 Y152.138 E280.87786
G0 F12000 X141.107 Y152.703
G1 F2700 X154.700 Y166.297 E281.19755
G0 F12000 X154.268 Y166.430
G1 F2700 X141.107 Y153.269 E281.50708
G0 F12000 X141.107 Y153.835
G1 F2700 X153.970 Y166.698 E281.80960
G0 F12000 X153.404 Y166.698
G1 F2700 X141.107 Y154.401 E282.09881
G0 F12000 X141.107 Y154.966
G1 F2700 X152.839 Y166.698 E282.37472
G0 F12000 X152.273 Y166.698
G1 F2700 X141.107 Y155.532 E282.63733
G0 F12000 X141.107 Y156.098
G1 F2700 X151.707 Y166.698 E282.88663
G0 F12000 X151.141 Y166.698
G1 F2700 X141.107 Y156.663 E283.12262
G0 F12000 X141.107 Y157.229
G1 F2700 X150.576 Y166.698 E283.34532
G0 F12000 X150.010 Y166.698
G1 F2700 X141.107 Y157.795 E283.55470
G0 F12000 X141.107 Y158.360
G1 F2700 X149.444 Y166.698 E283.75079
G0 F12000 X148.879 Y166.698
G1 F2700 X141.107 Y158.926 E283.93357
G0 F12000 X141.107 Y159.492
G1 F2700 X148.313 Y166.698 E284.10305
G0 F12000 X147.747 Y166.698
G1 F2700 X141.107 Y160.057 E284.25922
G0 F12000 X141.107 Y160.623
G1 F2700 X147.182 Y166.698 E284.40210
G0 F12000 X146.616 Y166.698
G1 F2700 X141.107 Y161.189 E284.53166
G0 F12000 X141.107 Y161.754
G1 F2700 X146.050 Y166.698 E284.64792
G0 F12000 X145.485 Y166.698
G1 F2700 X141.107 Y162.320 E284.75089
G0 F12000 X141.107 Y162.886
G1 F2700 X144.919 Y166.698 E284.84054
G0 F12000 X144.353 Y166.698
G1 F2700 X141.107 Y163.451 E284.91689
G0 F12000 X141.107 Y164.017
G1 F2700 X143.788 Y166.698 E284.97995
G0 F12000 X143.222 Y166.698
G1 F2700 X141.107 Y164.583 E285.02969
G0 F12000 X141.107 Y165.149
G1 F2700 X142.656 Y166.698 E285.06612
G0 F12000 X142.090 Y166.698
G1 F2700 X141.107 Y165.714 E285.08925
G0 F12000 X141.107 Y166.280
G1 F2700 X141.525 Y166.698 E285.09908
G0 F12000 X175.931 Y142.839
G1 F2700 X176.067 Y142.974 E285.10227
;LAYER:-1
;RAFT
G0 F12000 X176.098 Y143.000 Z0.770
;TYPE:SUPPORT
G1 F2700 X141.078 Y143.000 E286.67471
G0 F12000 X141.078 Y143.400
G1 F2700 X176.098 Y143.400 E288.24715
G0 F12000 X176.098 Y143.800
G1 F2700 X141.078 Y143.800 E289.81958
G0 F12000 X141.078 Y144.200
G1 F2700 X176.098 Y144.200 E291.39202
G0 F12000 X176.098 Y144.600
G1 F2700 X141.078 Y144.600 E292.96446
G0 F12000 X141.078 Y145.000
G1 F2700 X176.098 Y145.000 E294.53690
G0 F12000 X176.098 Y145.400
G1 F2700 X141.078 Y145.400 E296.10934
G0 F12000 X141.078 Y145.800
G1 F2700 X176.098 Y145.800 E297.68178
G0 F12000 X176.098 Y146.200
G1 F2700 X141.078 Y146.200 E299.25422
G0 F12000 X141.078 Y146.600
G1 F2700 X176.098 Y146.600 E300.82666
G0 F12000 X176.098 Y147.000
G1 F2700 X141.078 Y147.000 E302.39910
G0 F12000 X141.078 Y147.400
G1 F2700 X176.098 Y147.400 E303.97154
G0 F12000 X176.098 Y147.800
G1 F2700 X141.078 Y147.800 E305.54398
G0 F12000 X141.078 Y148.200
G1 F2700 X176.098 Y148.200 E307.11642
G0 F12000 X176.098 Y148.600
G1 F2700 X141.078 Y148.600 E308.68886
G0 F12000 X141.078 Y149.000
G1 F2700 X176.098 Y149.000 E310.26130
G0 F12000 X176.098 Y149.400
G1 F2700 X141.078 Y149.400 E311.83374
G0 F12000 X141.078 Y149.800
G1 F2700 X176.098 Y149.800 E313.40618
G0 F12000 X176.098 Y150.200
G1 F2700 X141.078 Y150.200 E314.97862
G0 F12000 X141.078 Y150.600
G1 F2700 X176.098 Y150.600 E316.55105
G0 F12000 X176.098 Y151.000
G1 F2700 X141.078 Y151.000 E318.12349
G0 F12000 X141.078 Y151.400
G1 F2700 X176.098 Y151.400 E319.69593
G0 F12000 X176.098 Y151.800
G1 F2700 X141.078 Y151.800 E321.26837
G0 F12000 X141.078 Y152.200
G1 F2700 X176.098 Y152.200 E322.84081
G0 F12000 X176.098 Y152.600
G1 F2700 X141.078 Y152.600 E324.41325
G0 F12000 X141.078 Y153.000
G1 F2700 X176.098 Y153.000 E325.98569
G0 F12000 X176.098 Y153.400
G1 F2700 X141.078 Y153.400 E327.55813
G0 F12000 X141.078 Y153.800
G1 F2700 X176.098 Y153.800 E329.13057
G0 F12000 X176.098 Y154.200
G1 F2700 X141.078 Y154.200 E330.70301
G0 F12000 X141.078 Y154.600
G1 F2700 X176.098 Y154.600 E332.27545
G0 F12000 X176.098 Y155.000
G1 F2700 X141.078 Y155.000 E333.84789
G0 F12000 X141.078 Y155.400
G1 F2700 X176.098 Y155.400 E335.42033
G0 F12000 X176.098 Y155.800
G1 F2700 X141.078 Y155.800 E336.99277
G0 F12000 X141.078 Y156.200
G1 F2700 X176.098 Y156.200 E338.56521
G0 F12000 X176.098 Y156.600
G1 F2700 X141.078 Y156.600 E340.13765
G0 F12000 X141.078 Y157.000
G1 F2700 X176.098 Y157.000 E341.71008
G0 F12000 X176.098 Y157.400
G1 F2700 X141.078 Y157.400 E343.28252
G0 F12000 X141.078 Y157.800
G1 F2700 X176.098 Y157.800 E344.85496
G0 F12000 X176.098 Y158.200
G1 F2700 X141.078 Y158.200 E346.42740
G0 F12000 X141.078 Y158.600
G1 F2700 X176.098 Y158.600 E347.99984
G0 F12000 X176.098 Y159.000
G1 F2700 X141.078 Y159.000 E349.57228
G0 F12000 X141.078 Y159.400
G1 F2700 X176.098 Y159.400 E351.14472
G0 F12000 X176.098 Y159.800
G1 F2700 X141.078 Y159.800 E352.71716
G0 F12000 X143.578 Y142.600
G1 F2700 X173.573 Y142.600 E354.06397
G0 F12000 X173.573 Y142.200
G1 F2700 X143.578 Y142.200 E355.41078
G0 F12000 X143.578 Y141.800
G1 F2700 X173.573 Y141.800 E356.75759
G0 F12000 X173.573 Y141.400
G1 F2700 X143.578 Y141.400 E358.10440
G0 F12000 X143.578 Y141.000
G1 F2700 X173.573 Y141.000 E359.45122
G0 F12000 X173.573 Y140.600
G1 F2700 X143.578 Y140.600 E360.79803
G0 F12000 X143.578 Y140.200
G1 F2700 X173.573 Y140.200 E362.14484
G0 F12000 X173.573 Y139.800
G1 F2700 X143.578 Y139.800 E363.49165
G0 F12000 X143.578 Y139.400
G1 F2700 X173.573 Y139.400 E364.83846
G0 F12000 X173.573 Y139.000
G1 F2700 X143.578 Y139.000 E366.18527
G0 F12000 X143.578 Y138.600
G1 F2700 X173.573 Y138.600 E367.53208
G0 F12000 X173.573 Y138.200
G1 F2700 X143.578 Y138.200 E368.87889
G0 F12000 X143.578 Y137.800
G1 F2700 X173.573 Y137.800 E370.22570
G0 F12000 X173.573 Y137.400
G1 F2700 X143.578 Y137.400 E371.57251
G0 F12000 X143.578 Y137.000
G1 F2700 X173.573 Y137.000 E372.91933
G0 F12000 X173.573 Y136.600
G1 F2700 X143.578 Y136.600 E374.26614
G0 F12000 X143.578 Y136.200
G1 F2700 X173.573 Y136.200 E375.61295
G0 F12000 X173.573 Y135.800
G1 F2700 X143.578 Y135.800 E376.95976
G0 F12000 X143.578 Y135.400
G1 F2700 X173.573 Y135.400 E378.30657
G0 F12000 X173.573 Y135.000
G1 F2700 X143.578 Y135.000 E379.65338
G0 F12000 X143.578 Y134.600
G1 F2700 X173.573 Y134.600 E381.00019
G0 F12000 X173.573 Y134.200
G1 F2700 X143.578 Y134.200 E382.34700
G0 F12000 X143.578 Y133.800
G1 F2700 X173.573 Y133.800 E383.69381
G0 F12000 X173.573 Y133.400
G1 F2700 X143.578 Y133.400 E385.04062
G0 F12000 X143.578 Y133.000
G1 F2700 X173.573 Y133.000 E386.38743
G0 F12000 X173.573 Y132.600
G1 F2700 X143.578 Y132.600 E387.73425
G0 F12000 X143.578 Y132.200
G1 F2700 X173.573 Y132.200 E389.08106
G0 F12000 X173.573 Y131.800
G1 F2700 X143.578 Y131.800 E390.42787
G0 F12000 X143.578 Y131.400
G1 F2700 X173.573 Y131.400 E391.77468
G0 F12000 X173.573 Y131.000
G1 F2700 X143.578 Y131.000 E393.12149
G0 F12000 X143.578 Y130.600
G1 F2700 X173.573 Y130.600 E394.46830
G0 F12000 X173.573 Y130.200
G1 F2700 X143.578 Y130.200 E395.81511
G0 F12000 X143.578 Y129.800
G1 F2700 X173.573 Y129.800 E397.16192
G0 F12000 X173.573 Y129.400
G1 F2700 X143.578 Y129.400 E398.50873
G0 F12000 X143.578 Y129.000
G1 F2700 X173.573 Y129.000 E399.85554
G0 F12000 X173.573 Y128.600
G1 F2700 X143.578 Y128.600 E401.20236
G0 F12000 X143.578 Y128.200
G1 F2700 X173.573 Y128.200 E402.54917
G0 F12000 X173.573 Y127.800
G1 F2700 X143.578 Y127.800 E403.89598
G0 F12000 X143.578 Y127.400
G1 F2700 X173.573 Y127.400 E405.24279
G0 F12000 X173.573 Y127.000
G1 F2700 X143.578 Y127.000 E406.58960
G0 F12000 X143.578 Y126.600
G1 F2700 X173.573 Y126.600 E407.93641
G0 F12000 X173.573 Y126.200
G1 F2700 X143.578 Y126.200 E409.28322
G0 F12000 X143.578 Y125.800
G1 F2700 X173.573 Y125.800 E410.63003
G0 F12000 X173.573 Y125.400
G1 F2700 X143.578 Y125.400 E411.97684
G0 F12000 X143.578 Y125.000
G1 F2700 X173.573 Y125.000 E413.32365
G0 F12000 X173.573 Y124.600
G1 F2700 X143.578 Y124.600 E414.67047
G0 F12000 X143.578 Y124.200
G1 F2700 X173.573 Y124.200 E416.01728
G0 F12000 X173.573 Y123.800
G1 F2700 X143.578 Y123.800 E417.36409
G0 F12000 X143.578 Y123.400
G1 F2700 X173.573 Y123.400 E418.71090
G0 F12000 X173.573 Y123.000
G1 F2700 X143.578 Y123.000 E420.05771
G0 F12000 X143.578 Y122.600
G1 F2700 X173.573 Y122.600 E421.40452
G0 F12000 X173.573 Y122.200
G1 F2700 X143.578 Y122.200 E422.75133
G0 F12000 X143.578 Y121.800
G1 F2700 X173.573 Y121.800 E424.09814
G0 F12000 X173.573 Y121.400
G1 F2700 X143.578 Y121.400 E425.44495
G0 F12000 X143.578 Y121.000
G1 F2700 X173.573 Y121.000 E426.79176
G0 F12000 X173.573 Y120.600
G1 F2700 X143.578 Y120.600 E428.13857
G0 F12000 X143.578 Y120.200
G1 F2700 X173.573 Y120.200 E429.48539
G0 F12000 X173.573 Y119.800
G1 F2700 X143.578 Y119.800 E430.83220
G0 F12000 X143.578 Y119.400
G1 F2700 X173.573 Y119.400 E432.17901
G0 F12000 X173.573 Y119.000
G1 F2700 X143.578 Y119.000 E433.52582
G0 F12000 X143.578 Y118.600
G1 F2700 X173.573 Y118.600 E434.87263
G0 F12000 X173.573 Y118.200
G1 F2700 X143.578 Y118.200 E436.21944
G0 F12000 X143.578 Y117.800
G1 F2700 X173.573 Y117.800 E437.56625
G0 F12000 X173.573 Y117.400
G1 F2700 X143.578 Y117.400 E438.91306
G0 F12000 X143.578 Y117.000
G1 F2700 X173.573 Y117.000 E440.25987
G0 F12000 X173.573 Y116.600
G1 F2700 X143.578 Y116.600 E441.60668
G0 F12000 X143.578 Y116.200
G1 F2700 X173.573 Y116.200 E442.95350
G0 F12000 X173.573 Y115.800
G1 F2700 X143.578 Y115.800 E444.30031
G0 F12000 X143.578 Y115.400
G1 F2700 X173.573 Y115.400 E445.64712
G0 F12000 X173.573 Y115.000
G1 F2700 X143.578 Y115.000 E446.99393
G0 F12000 X143.578 Y114.600
G1 F2700 X173.573 Y114.600 E448.34074
G0 F12000 X173.573 Y114.200
G1 F2700 X143.578 Y114.200 E449.68755
G0 F12000 X143.578 Y113.800
G1 F2700 X173.573 Y113.800 E451.03436
G0 F12000 X173.573 Y113.400
G1 F2700 X143.578 Y113.400 E452.38117
G0 F12000 X143.578 Y113.000
G1 F2700 X173.573 Y113.000 E453.72798
G0 F12000 X173.573 Y112.600
G1 F2700 X143.578 Y112.600 E455.07479
G0 F12000 X143.578 Y112.200
G1 F2700 X173.573 Y112.200 E456.42160
G0 F12000 X173.573 Y111.800
G1 F2700 X143.578 Y111.800 E457.76842
G0 F12000 X143.578 Y111.400
G1 F2700 X173.573 Y111.400 E459.11523
G0 F12000 X173.573 Y111.000
G1 F2700 X143.578 Y111.000 E460.46204
G0 F12000 X143.578 Y110.600
G1 F2700 X173.573 Y110.600 E461.80885
G0 F12000 X173.573 Y110.200
G1 F2700 X143.578 Y110.200 E463.15566
G0 F12000 X143.578 Y109.800
G1 F2700 X173.573 Y109.800 E464.50247
G0 F12000 X173.573 Y109.400
G1 F2700 X143.578 Y109.400 E465.84928
G0 F12000 X143.578 Y109.000
G1 F2700 X173.573 Y109.000 E467.19609
G0 F12000 X173.573 Y108.600
G1 F2700 X143.578 Y108.600 E468.54290
G0 F12000 X143.578 Y108.200
G1 F2700 X173.573 Y108.200 E469.88971
G0 F12000 X173.573 Y107.800
G1 F2700 X143.578 Y107.800 E471.23653
G0 F12000 X143.578 Y107.400
G1 F2700 X173.573 Y107.400 E472.58334
G0 F12000 X173.573 Y107.000
G1 F2700 X143.578 Y107.000 E473.93015
G0 F12000 X143.578 Y106.600
G1 F2700 X173.573 Y106.600 E475.27696
G0 F12000 X173.573 Y106.200
G1 F2700 X143.578 Y106.200 E476.62377
G0 F12000 X143.578 Y105.800
G1 F2700 X173.573 Y105.800 E477.97058
G0 F12000 X173.573 Y105.400
G1 F2700 X143.578 Y105.400 E479.31739
G0 F12000 X143.578 Y105.000
G1 F2700 X173.573 Y105.000 E480.66420
G0 F12000 X173.573 Y104.600
G1 F2700 X143.578 Y104.600 E482.01101
G0 F12000 X143.578 Y104.200
G1 F2700 X173.573 Y104.200 E483.35782
G0 F12000 X173.573 Y103.800
G1 F2700 X143.578 Y103.800 E484.70464
G0 F12000 X143.578 Y103.400
G1 F2700 X173.573 Y103.400 E486.05145
G0 F12000 X173.573 Y103.000
G1 F2700 X143.578 Y103.000 E487.39826
G0 F12000 X143.578 Y102.600
G1 F2700 X173.573 Y102.600 E488.74507
G0 F12000 X173.573 Y102.200
G1 F2700 X143.578 Y102.200 E490.09188
G0 F12000 X143.578 Y101.800
G1 F2700 X173.573 Y101.800 E491.43869
G0 F12000 X176.098 Y160.200
G1 F2700 X141.078 Y160.200 E493.01113
G0 F12000 X141.078 Y160.600
G1 F2700 X176.098 Y160.600 E494.58357
G0 F12000 X176.098 Y161.000
G1 F2700 X141.078 Y161.000 E496.15601
G0 F12000 X141.078 Y161.400
G1 F2700 X176.098 Y161.400 E497.72845
G0 F12000 X176.098 Y161.800
G1 F2700 X141.078 Y161.800 E499.30089
G0 F12000 X141.078 Y162.200
G1 F2700 X176.098 Y162.200 E500.87333
G0 F12000 X176.098 Y162.600
G1 F2700 X141.078 Y162.600 E502.44577
G0 F12000 X141.078 Y163.000
G1 F2700 X176.098 Y163.000 E504.01821
G0 F12000 X176.098 Y163.400
G1 F2700 X141.078 Y163.400 E505.59064
G0 F12000 X141.078 Y163.800
G1 F2700 X176.098 Y163.800 E507.16308
G0 F12000 X176.098 Y164.200
G1 F2700 X141.078 Y164.200 E508.73552
G0 F12000 X141.078 Y164.600
G1 F2700 X176.098 Y164.600 E510.30796
G0 F12000 X176.098 Y165.000
G1 F2700 X141.078 Y165.000 E511.88040
G0 F12000 X141.078 Y165.400
G1 F2700 X176.098 Y165.400 E513.45284
G0 F12000 X176.098 Y165.800
G1 F2700 X141.078 Y165.800 E515.02528
G0 F12000 X141.078 Y166.200
G1 F2700 X176.098 Y166.200 E516.59772
G0 F12000 X176.098 Y166.600
G1 F2700 X162.678 Y166.600 E517.20029
G0 F12000 X154.298 Y166.600
G1 F2700 X141.078 Y166.600 E517.79389
;LAYER:-1
;RAFT
G0 F12000 X141.399 Y166.728 Z1.040
;TYPE:SUPPORT
G1 F2700 X141.399 Y142.808 E518.86792
G0 F12000 X141.799 Y142.808
G1 F2700 X141.799 Y166.728 E519.94196
G0 F12000 X142.199 Y166.728
G1 F2700 X142.199 Y142.808 E521.01600
G0 F12000 X142.599 Y142.808
G1 F2700 X142.599 Y166.728 E522.09003
G0 F12000 X142.999 Y166.728
G1 F2700 X142.999 Y142.808 E523.16407
G0 F12000 X143.399 Y142.808
G1 F2700 X143.399 Y166.728 E524.23811
G0 F12000 X143.799 Y166.728
G1 F2700 X143.800 Y101.408 E527.17105
G0 F12000 X144.200 Y101.408
G1 F2700 X144.199 Y166.728 E530.10400
G0 F12000 X144.599 Y166.728
G1 F2700 X144.600 Y101.408 E533.03694
G0 F12000 X145.000 Y101.408
G1 F2700 X144.999 Y166.728 E535.96989
G0 F12000 X145.399 Y166.728
G1 F2700 X145.400 Y101.408 E538.90283
G0 F12000 X145.800 Y101.408
G1 F2700 X145.799 Y166.728 E541.83578
G0 F12000 X146.199 Y166.728
G1 F2700 X146.200 Y101.408 E544.76872
G0 F12000 X146.600 Y101.408
G1 F2700 X146.599 Y166.728 E547.70167
G0 F12000 X146.999 Y166.728
G1 F2700 X147.000 Y101.408 E550.63461
G0 F12000 X147.400 Y101.408
G1 F2700 X147.399 Y166.728 E553.56756
G0 F12000 X147.799 Y166.728
G1 F2700 X147.800 Y101.408 E556.50050
G0 F12000 X148.200 Y101.408
G1 F2700 X148.199 Y166.728 E559.43345
G0 F12000 X148.599 Y166.728
G1 F2700 X148.600 Y101.408 E562.36639
G0 F12000 X149.000 Y101.408
G1 F2700 X148.999 Y166.728 E565.29934
G0 F12000 X149.399 Y166.728
G1 F2700 X149.400 Y101.408 E568.23228
G0 F12000 X149.800 Y101.408
G1 F2700 X149.799 Y166.728 E571.16523
G0 F12000 X150.199 Y166.728
G1 F2700 X150.200 Y101.408 E574.09817
G0 F12000 X150.600 Y101.408
G1 F2700 X150.599 Y166.728 E577.03112
G0 F12000 X150.999 Y166.728
G1 F2700 X151.000 Y101.408 E579.96407
G0 F12000 X151.400 Y101.408
G1 F2700 X151.399 Y166.728 E582.89701
G0 F12000 X151.799 Y166.728
G1 F2700 X151.800 Y101.408 E585.82996
G0 F12000 X152.200 Y101.408
G1 F2700 X152.199 Y166.728 E588.76290
G0 F12000 X152.599 Y166.728
G1 F2700 X152.600 Y101.408 E591.69585
G0 F12000 X153.000 Y101.408
G1 F2700 X152.999 Y166.728 E594.62879
G0 F12000 X153.399 Y166.728
G1 F2700 X153.400 Y101.408 E597.56174
G0 F12000 X153.800 Y101.408
G1 F2700 X153.799 Y166.728 E600.49468
G0 F12000 X154.199 Y166.728
G1 F2700 X154.200 Y101.408 E603.42763
G0 F12000 X154.600 Y101.408
G1 F2700 X154.599 Y166.327 E606.34257
G0 F12000 X154.999 Y166.327
G1 F2700 X155.000 Y101.408 E609.25751
G0 F12000 X155.400 Y101.408
G1 F2700 X155.399 Y166.327 E612.17245
G0 F12000 X155.799 Y166.327
G1 F2700 X155.800 Y101.408 E615.08739
G0 F12000 X156.200 Y101.408
G1 F2700 X156.199 Y166.327 E618.00233
G0 F12000 X156.599 Y166.327
G1 F2700 X156.600 Y101.408 E620.91727
G0 F12000 X157.000 Y101.408
G1 F2700 X156.999 Y166.327 E623.83221
G0 F12000 X157.399 Y166.327
G1 F2700 X157.400 Y101.408 E626.74715
G0 F12000 X157.800 Y101.408
G1 F2700 X157.799 Y166.327 E629.66209
G0 F12000 X158.199 Y166.327
G1 F2700 X158.200 Y101.408 E632.57703
G0 F12000 X158.600 Y101.408
G1 F2700 X158.599 Y166.327 E635.49197
G0 F12000 X158.999 Y166.327
G1 F2700 X159.000 Y101.408 E638.40691
G0 F12000 X159.400 Y101.408
G1 F2700 X159.399 Y166.327 E641.32184
G0 F12000 X159.799 Y166.327
G1 F2700 X159.800 Y101.408 E644.23678
G0 F12000 X160.200 Y101.408
G1 F2700 X160.199 Y166.327 E647.15172
G0 F12000 X160.599 Y166.327
G1 F2700 X160.600 Y101.408 E650.06666
G0 F12000 X161.000 Y101.408
G1 F2700 X160.999 Y166.327 E652.98160
G0 F12000 X161.399 Y166.327
G1 F2700 X161.400 Y101.408 E655.89654
G0 F12000 X161.800 Y101.408
G1 F2700 X161.799 Y166.327 E658.81148
G0 F12000 X162.199 Y166.327
G1 F2700 X162.200 Y101.408 E661.72642
G0 F12000 X162.600 Y101.408
G1 F2700 X162.599 Y166.327 E664.64136
G0 F12000 X162.999 Y166.728
G1 F2700 X163.000 Y101.408 E667.57431
G0 F12000 X163.400 Y101.408
G1 F2700 X163.399 Y166.728 E670.50725
G0 F12000 X163.799 Y166.728
G1 F2700 X163.800 Y101.408 E673.44020
G0 F12000 X164.200 Y101.408
G1 F2700 X164.199 Y166.728 E676.37314
G0 F12000 X164.599 Y166.728
G1 F2700 X164.600 Y101.408 E679.30609
G0 F12000 X165.000 Y101.408
G1 F2700 X164.999 Y166.728 E682.23904
G0 F12000 X165.399 Y166.728
G1 F2700 X165.400 Y101.408 E685.17198
G0 F12000 X165.800 Y101.408
G1 F2700 X165.799 Y166.728 E688.10493
G0 F12000 X166.199 Y166.728
G1 F2700 X166.200 Y101.408 E691.03787
G0 F12000 X166.600 Y101.408
G1 F2700 X166.599 Y166.728 E693.97082
G0 F12000 X166.999 Y166.728
G1 F2700 X167.000 Y101.408 E696.90376
G0 F12000 X167.400 Y101.408
G1 F2700 X167.399 Y166.728 E699.83671
G0 F12000 X167.799 Y166.728
G1 F2700 X167.800 Y101.408 E702.76965
G0 F12000 X168.200 Y101.408
G1 F2700 X168.199 Y166.728 E705.70260
G0 F12000 X168.599 Y166.728
G1 F2700 X168.600 Y101.408 E708.63554
G0 F12000 X169.000 Y101.408
G1 F2700 X168.999 Y166.728 E711.56849
G0 F12000 X169.399 Y166.728
G1 F2700 X169.400 Y101.408 E714.50143
G0 F12000 X169.800 Y101.408
G1 F2700 X169.799 Y166.728 E717.43438
G0 F12000 X170.199 Y166.728
G1 F2700 X170.200 Y101.408 E720.36732
G0 F12000 X170.600 Y101.408
G1 F2700 X170.599 Y166.728 E723.30027
G0 F12000 X170.999 Y166.728
G1 F2700 X171.000 Y101.408 E726.23321
G0 F12000 X171.400 Y101.408
G1 F2700 X171.399 Y166.728 E729.16616
G0 F12000 X171.799 Y166.728
G1 F2700 X171.800 Y101.408 E732.09910
G0 F12000 X172.200 Y101.408
G1 F2700 X172.199 Y166.728 E735.03205
G0 F12000 X172.599 Y166.728
G1 F2700 X172.600 Y101.408 E737.96499
G0 F12000 X173.000 Y101.408
G1 F2700 X172.999 Y166.728 E740.89794
G0 F12000 X173.399 Y166.728
G1 F2700 X173.400 Y101.408 E743.83089
G0 F12000 X173.799 Y142.808
G1 F2700 X173.799 Y166.728 E744.90492
G0 F12000 X174.199 Y166.728
G1 F2700 X174.199 Y142.808 E745.97896
G0 F12000 X174.599 Y142.808
G1 F2700 X174.599 Y166.728 E747.05299
G0 F12000 X174.999 Y166.728
G1 F2700 X174.999 Y142.808 E748.12703
G0 F12000 X175.399 Y142.808
G1 F2700 X175.399 Y166.728 E749.20107
G0 F12000 X175.799 Y166.728
G1 F2700 X175.799 Y142.808 E750.27510
;LAYER:0
M107
G1 F3600 E748.87510
G0 F12000 X167.913 Y160.668 Z1.680
;TYPE:WALL-INNER
G1 F3600 E750.27510
G1 F2700 X149.238 Y160.668 E750.89624
G1 X149.238 Y107.069 E752.67895
G1 X167.913 Y107.069 E753.30008
G1 X167.913 Y160.668 E755.08279
G0 F12000 X168.313 Y161.068
;TYPE:WALL-OUTER
G1 F2700 X148.838 Y161.068 E755.73053
G1 X148.838 Y106.669 E757.53985
G1 X168.313 Y106.669 E758.18759
G1 X168.313 Y161.068 E759.99691
G0 F12000 X167.598 Y160.527
;TYPE:SKIN
G1 F2700 X149.377 Y142.305 E760.85399
G0 F12000 X149.377 Y141.740
G1 F2700 X167.772 Y160.135 E761.71924
G0 F12000 X167.032 Y160.527
G1 F2700 X149.377 Y142.871 E762.54970
G0 F12000 X149.377 Y143.437
G1 F2700 X166.467 Y160.527 E763.35356
G0 F12000 X165.901 Y160.527
G1 F2700 X149.377 Y144.003 E764.13080
G0 F12000 X149.377 Y144.568
G1 F2700 X165.335 Y160.527 E764.88143
G0 F12000 X164.770 Y160.527
G1 F2700 X149.377 Y145.134 E765.60547
G0 F12000 X149.377 Y145.700
G1 F2700 X164.204 Y160.527 E766.30289
G0 F12000 X163.638 Y160.527
G1 F2700 X149.377 Y146.265 E766.97371
G0 F12000 X149.377 Y146.831
G1 F2700 X163.072 Y160.527 E767.61790
G0 F12000 X162.507 Y160.527
G1 F2700 X149.377 Y147.397 E768.23550
G0 F12000 X149.377 Y147.962
G1 F2700 X161.941 Y160.527 E768.82649
G0 F12000 X161.375 Y160.527
G1 F2700 X149.377 Y148.528 E769.39086
G0 F12000 X149.377 Y149.094
G1 F2700 X160.810 Y160.527 E769.92864
G0 F12000 X160.244 Y160.527
G1 F2700 X149.377 Y149.659 E770.43981
G0 F12000 X149.377 Y150.225
G1 F2700 X159.678 Y160.527 E770.92436
G0 F12000 X159.113 Y160.527
G1 F2700 X149.377 Y150.791 E771.38231
G0 F12000 X149.377 Y151.356
G1 F2700 X158.547 Y160.527 E771.81367
G0 F12000 X157.981 Y160.527
G1 F2700 X149.377 Y151.922 E772.21840
G0 F12000 X149.377 Y152.488
G1 F2700 X157.416 Y160.527 E772.59653
G0 F12000 X156.850 Y160.527
G1 F2700 X149.377 Y153.053 E772.94806
G0 F12000 X149.377 Y153.619
G1 F2700 X156.284 Y160.527 E773.27296
G0 F12000 X155.719 Y160.527
G1 F2700 X149.377 Y154.185 E773.57127
G0 F12000 X149.377 Y154.751
G1 F2700 X155.153 Y160.527 E773.84296
G0 F12000 X154.587 Y160.527
G1 F2700 X149.377 Y155.316 E774.08804
G0 F12000 X149.377 Y155.882
G1 F2700 X154.021 Y160.527 E774.30651
G0 F12000 X153.456 Y160.527
G1 F2700 X149.377 Y156.448 E774.49837
G0 F12000 X149.377 Y157.013
G1 F2700 X152.890 Y160.527 E774.66363
G0 F12000 X152.324 Y160.527
G1 F2700 X149.377 Y157.579 E774.80228
G0 F12000 X149.377 Y158.145
G1 F2700 X151.759 Y160.527 E774.91432
G0 F12000 X151.193 Y160.527
G1 F2700 X149.377 Y158.710 E774.99976
G0 F12000 X149.377 Y159.276
G1 F2700 X150.627 Y160.527 E775.05858
G0 F12000 X150.062 Y160.527
G1 F2700 X149.377 Y159.842 E775.09080
G0 F12000 X167.772 Y159.569
G1 F2700 X149.377 Y141.174 E775.95604
G0 F12000 X149.377 Y140.608
G1 F2700 X167.772 Y159.004 E776.82131
G0 F12000 X167.772 Y158.438
G1 F2700 X149.377 Y140.043 E777.68656
G0 F12000 X149.377 Y139.477
G1 F2700 X167.772 Y157.872 E778.55180
G0 F12000 X167.772 Y157.307
G1 F2700 X149.377 Y138.911 E779.41707
G0 F12000 X149.377 Y138.346
G1 F2700 X167.772 Y156.741 E780.28231
G0 F12000 X167.772 Y156.175
G1 F2700 X149.377 Y137.780 E781.14756
G0 F12000 X149.377 Y137.214
G1 F2700 X167.772 Y155.610 E782.01283
G0 F12000 X167.772 Y155.044
G1 F2700 X149.377 Y136.649 E782.87807
G0 F12000 X149.377 Y136.083
G1 F2700 X167.772 Y154.478 E783.74332
G0 F12000 X167.772 Y153.913
G1 F2700 X149.377 Y135.517 E784.60858
G0 F12000 X149.377 Y134.952
G1 F2700 X167.772 Y153.347 E785.47383
G0 F12000 X167.772 Y152.781
G1 F2700 X149.377 Y134.386 E786.33907
G0 F12000 X149.377 Y133.820
G1 F2700 X167.772 Y152.216 E787.20434
G0 F12000 X167.772 Y151.650
G1 F2700 X149.377 Y133.254 E788.06961
G0 F12000 X149.377 Y132.689
G1 F2700 X167.772 Y151.084 E788.93485
G0 F12000 X167.772 Y150.518
G1 F2700 X149.377 Y132.123 E789.80010
G0 F12000 X149.377 Y131.557
G1 F2700 X167.772 Y149.953 E790.66536
G0 F12000 X167.772 Y149.387
G1 F2700 X149.377 Y130.992 E791.53061
G0 F12000 X149.377 Y130.426
G1 F2700 X167.772 Y148.821 E792.39585
G0 F12000 X167.772 Y148.256
G1 F2700 X149.377 Y129.860 E793.26112
G0 F12000 X149.377 Y129.295
G1 F2700 X167.772 Y147.690 E794.12637
G0 F12000 X167.772 Y147.124
G1 F2700 X149.377 Y128.729 E794.99161
G0 F12000 X149.377 Y128.163
G1 F2700 X167.772 Y146.559 E795.85688
G0 F12000 X167.772 Y145.993
G1 F2700 X149.377 Y127.598 E796.72212
G0 F12000 X149.377 Y127.032
G1 F2700 X167.772 Y145.427 E797.58737
G0 F12000 X167.772 Y144.862
G1 F2700 X149.377 Y126.466 E798.45263
G0 F12000 X149.377 Y125.901
G1 F2700 X167.772 Y144.296 E799.31788
G0 F12000 X167.772 Y143.730
G1 F2700 X149.377 Y125.335 E800.18312
G0 F12000 X149.377 Y124.769
G1 F2700 X167.772 Y143.165 E801.04839
G0 F12000 X167.772 Y142.599
G1 F2700 X149.377 Y124.204 E801.91364
G0 F12000 X149.377 Y123.638
G1 F2700 X167.772 Y142.033 E802.77888
G0 F12000 X167.772 Y141.468
G1 F2700 X149.377 Y123.072 E803.64415
G0 F12000 X149.377 Y122.506
G1 F2700 X167.772 Y140.902 E804.50942
G0 F12000 X167.772 Y140.336
G1 F2700 X149.377 Y121.941 E805.37466
G0 F12000 X149.377 Y121.375
G1 F2700 X167.772 Y139.770 E806.23990
G0 F12000 X167.772 Y139.205
G1 F2700 X149.377 Y120.809 E807.10517
G0 F12000 X149.377 Y120.244
G1 F2700 X167.772 Y138.639 E807.97042
G0 F12000 X167.772 Y138.073
G1 F2700 X149.377 Y119.678 E808.83566
G0 F12000 X149.377 Y119.112
G1 F2700 X167.772 Y137.508 E809.70093
G0 F12000 X167.772 Y136.942
G1 F2700 X149.377 Y118.547 E810.56617
G0 F12000 X149.377 Y117.981
G1 F2700 X167.772 Y136.376 E811.43142
G0 F12000 X167.772 Y135.811
G1 F2700 X149.377 Y117.415 E812.29669
G0 F12000 X149.377 Y116.850
G1 F2700 X167.772 Y135.245 E813.16193
G0 F12000 X167.772 Y134.679
G1 F2700 X149.377 Y116.284 E814.02717
G0 F12000 X149.377 Y115.718
G1 F2700 X167.772 Y134.114 E814.89244
G0 F12000 X167.772 Y133.548
G1 F2700 X149.377 Y115.153 E815.75769
G0 F12000 X149.377 Y114.587
G1 F2700 X167.772 Y132.982 E816.62293
G0 F12000 X167.772 Y132.417
G1 F2700 X149.377 Y114.021 E817.48820
G0 F12000 X149.377 Y113.455
G1 F2700 X167.772 Y131.851 E818.35347
G0 F12000 X167.772 Y131.285
G1 F2700 X149.377 Y112.890 E819.21871
G0 F12000 X149.377 Y112.324
G1 F2700 X167.772 Y130.720 E820.08398
G0 F12000 X167.772 Y130.154
G1 F2700 X149.377 Y111.758 E820.94925
G0 F12000 X149.377 Y111.193
G1 F2700 X167.772 Y129.588 E821.81449
G0 F12000 X167.772 Y129.022
G1 F2700 X149.377 Y110.627 E822.67974
G0 F12000 X149.377 Y110.061
G1 F2700 X167.772 Y128.457 E823.54500
G0 F12000 X167.772 Y127.891
G1 F2700 X149.377 Y109.496 E824.41025
G0 F12000 X149.377 Y108.930
G1 F2700 X167.772 Y127.325 E825.27549
G0 F12000 X167.772 Y126.760
G1 F2700 X149.377 Y108.364 E826.14076
G0 F12000 X149.377 Y107.799
G1 F2700 X167.772 Y126.194 E827.00601
G0 F12000 X167.772 Y125.628
G1 F2700 X149.377 Y107.233 E827.87125
G0 F12000 X149.918 Y107.209
G1 F2700 X167.772 Y125.063 E828.71105
G0 F12000 X167.772 Y124.497
G1 F2700 X150.484 Y107.209 E829.52422
G0 F12000 X151.050 Y107.209
G1 F2700 X167.772 Y123.931 E830.31077
G0 F12000 X167.772 Y123.366
G1 F2700 X151.615 Y107.209 E831.07075
G0 F12000 X152.181 Y107.209
G1 F2700 X167.772 Y122.800 E831.80410
G0 F12000 X167.772 Y122.234
G1 F2700 X152.747 Y107.209 E832.51083
G0 F12000 X153.312 Y107.209
G1 F2700 X167.772 Y121.669 E833.19099
G0 F12000 X167.772 Y121.103
G1 F2700 X153.878 Y107.209 E833.84452
G0 F12000 X154.444 Y107.209
G1 F2700 X167.772 Y120.537 E834.47143
G0 F12000 X167.772 Y119.971
G1 F2700 X155.009 Y107.209 E835.07173
G0 F12000 X155.575 Y107.209
G1 F2700 X167.772 Y119.406 E835.64544
G0 F12000 X167.772 Y118.840
G1 F2700 X156.141 Y107.209 E836.19253
G0 F12000 X156.706 Y107.209
G1 F2700 X167.772 Y118.274 E836.71302
G0 F12000 X167.772 Y117.709
G1 F2700 X157.272 Y107.209 E837.20691
G0 F12000 X157.838 Y107.209
G1 F2700 X167.772 Y117.143 E837.67417
G0 F12000 X167.772 Y116.577
G1 F2700 X158.403 Y107.209 E838.11484
G0 F12000 X158.969 Y107.209
G1 F2700 X167.772 Y116.012 E838.52890
G0 F12000 X167.772 Y115.446
G1 F2700 X159.535 Y107.209 E838.91635
G0 F12000 X160.100 Y107.209
G1 F2700 X167.772 Y114.880 E839.27719
G0 F12000 X167.772 Y114.315
G1 F2700 X160.666 Y107.209 E839.61143
G0 F12000 X161.232 Y107.209
G1 F2700 X167.772 Y113.749 E839.91906
G0 F12000 X167.772 Y113.183
G1 F2700 X161.798 Y107.209 E840.20005
G0 F12000 X162.363 Y107.209
G1 F2700 X167.772 Y112.618 E840.45448
G0 F12000 X167.772 Y112.052
G1 F2700 X162.929 Y107.209 E840.68228
G0 F12000 X163.495 Y107.209
G1 F2700 X167.772 Y111.486 E840.88345
G0 F12000 X167.772 Y110.921
G1 F2700 X164.060 Y107.209 E841.05805
G0 F12000 X164.626 Y107.209
G1 F2700 X167.772 Y110.355 E841.20603
G0 F12000 X167.772 Y109.789
G1 F2700 X165.192 Y107.209 E841.32739
G0 F12000 X165.757 Y107.209
G1 F2700 X167.772 Y109.223 E841.42214
G0 F12000 X167.772 Y108.658
G1 F2700 X166.323 Y107.209 E841.49030
G0 F12000 X166.889 Y107.209
G1 F2700 X167.772 Y108.092 E841.53183
G0 F12000 X167.772 Y107.526
G1 F2700 X167.454 Y107.209 E841.54677
G0 F12000 X149.377 Y160.407
G1 F2700 X149.496 Y160.527 E841.55239
;LAYER:1
M106 S12
G0 F12000 X149.238 Y160.668 Z1.610
;TYPE:WALL-INNER
G1 F3480 X149.238 Y107.069 E842.88942
G1 X167.913 Y107.069 E843.35527
G1 X167.913 Y160.668 E844.69230
G1 X149.238 Y160.668 E845.15815
G0 F12000 X148.838 Y161.068
;TYPE:WALL-OUTER
G1 F3480 X148.838 Y106.669 E846.51514
G1 X168.313 Y106.669 E847.00095
G1 X168.313 Y161.068 E848.35794
G1 X148.838 Y161.068 E848.84374
G0 F12000 X149.377 Y160.335
;TYPE:SKIN
G1 F3480 X167.771 Y141.941 E849.49264
G0 F12000 X167.771 Y142.506
G1 F3480 X149.750 Y160.528 E850.12840
G0 F12000 X150.316 Y160.528
G1 F3480 X167.771 Y143.072 E850.74419
G0 F12000 X167.771 Y143.638
G1 F3480 X150.881 Y160.528 E851.34003
G0 F12000 X151.447 Y160.528
G1 F3480 X167.771 Y144.203 E851.91592
G0 F12000 X167.771 Y144.769
G1 F3480 X152.013 Y160.528 E852.47184
G0 F12000 X152.578 Y160.528
G1 F3480 X167.771 Y145.335 E853.00782
G0 F12000 X167.771 Y145.900
G1 F3480 X153.144 Y160.528 E853.52384
G0 F12000 X153.710 Y160.528
G1 F3480 X167.771 Y146.466 E854.01990
G0 F12000 X167.771 Y147.032
G1 F3480 X154.275 Y160.528 E854.49601
G0 F12000 X154.841 Y160.528
G1 F3480 X167.771 Y147.597 E854.95216
G0 F12000 X167.771 Y148.163
G1 F3480 X155.407 Y160.528 E855.38836
G0 F12000 X155.972 Y160.528
G1 F3480 X167.771 Y148.729 E855.80460
G0 F12000 X167.771 Y149.294
G1 F3480 X156.538 Y160.528 E856.20089
G0 F12000 X157.104 Y160.528
G1 F3480 X167.771 Y149.860 E856.57721
G0 F12000 X167.771 Y150.426
G1 F3480 X157.669 Y160.528 E856.93359
G0 F12000 X158.235 Y160.528
G1 F3480 X167.771 Y150.992 E857.27000
G0 F12000 X167.771 Y151.557
G1 F3480 X158.801 Y160.528 E857.58646
G0 F12000 X159.367 Y160.528
G1 F3480 X167.771 Y152.123 E857.88295
G0 F12000 X167.771 Y152.689
G1 F3480 X159.932 Y160.528 E858.15949
G0 F12000 X160.498 Y160.528
G1 F3480 X167.771 Y153.254 E858.41608
G0 F12000 X167.771 Y153.820
G1 F3480 X161.064 Y160.528 E858.65271
G0 F12000 X161.629 Y160.528
G1 F3480 X167.771 Y154.386 E858.86938
G0 F12000 X167.771 Y154.951
G1 F3480 X162.195 Y160.528 E859.06611
G0 F12000 X162.761 Y160.528
G1 F3480 X167.771 Y155.517 E859.24287
G0 F12000 X167.771 Y156.083
G1 F3480 X163.326 Y160.528 E859.39968
G0 F12000 X163.892 Y160.528
G1 F3480 X167.771 Y156.648 E859.53654
G0 F12000 X167.771 Y157.214
G1 F3480 X164.458 Y160.528 E859.65343
G0 F12000 X165.023 Y160.528
G1 F3480 X167.771 Y157.780 E859.75037
G0 F12000 X167.771 Y158.345
G1 F3480 X165.589 Y160.528 E859.82737
G0 F12000 X166.155 Y160.528
G1 F3480 X167.771 Y158.911 E859.88439
G0 F12000 X167.771 Y159.477
G1 F3480 X166.720 Y160.528 E859.92147
G0 F12000 X167.286 Y160.528
G1 F3480 X167.771 Y160.043 E859.93858
G0 F12000 X149.377 Y159.769
G1 F3480 X167.771 Y141.375 E860.58748
G0 F12000 X167.771 Y140.809
G1 F3480 X149.377 Y159.203 E861.23638
G0 F12000 X149.377 Y158.637
G1 F3480 X167.771 Y140.244 E861.88526
G0 F12000 X167.771 Y139.678
G1 F3480 X149.377 Y158.072 E862.53415
G0 F12000 X149.377 Y157.506
G1 F3480 X167.771 Y139.112 E863.18305
G0 F12000 X167.771 Y138.546
G1 F3480 X149.377 Y156.940 E863.83195
G0 F12000 X149.377 Y156.375
G1 F3480 X167.771 Y137.981 E864.48085
G0 F12000 X167.771 Y137.415
G1 F3480 X149.377 Y155.809 E865.12975
G0 F12000 X149.377 Y155.243
G1 F3480 X167.771 Y136.849 E865.77864
G0 F12000 X167.771 Y136.284
G1 F3480 X149.377 Y154.678 E866.42754
G0 F12000 X149.377 Y154.112
G1 F3480 X167.771 Y135.718 E867.07644
G0 F12000 X167.771 Y135.152
G1 F3480 X149.377 Y153.546 E867.72534
G0 F12000 X149.377 Y152.981
G1 F3480 X167.771 Y134.587 E868.37424
G0 F12000 X167.771 Y134.021
G1 F3480 X149.377 Y152.415 E869.02313
G0 F12000 X149.377 Y151.849
G1 F3480 X167.771 Y133.455 E869.67203
G0 F12000 X167.771 Y132.890
G1 F3480 X149.377 Y151.284 E870.32093
G0 F12000 X149.377 Y150.718
G1 F3480 X167.771 Y132.324 E870.96983
G0 F12000 X167.771 Y131.758
G1 F3480 X149.377 Y150.152 E871.61873
G0 F12000 X149.377 Y149.587
G1 F3480 X167.771 Y131.193 E872.26762
G0 F12000 X167.771 Y130.627
G1 F3480 X149.377 Y149.021 E872.91652
G0 F12000 X149.377 Y148.455
G1 F3480 X167.771 Y130.061 E873.56542
G0 F12000 X167.771 Y129.496
G1 F3480 X149.377 Y147.889 E874.21430
G0 F12000 X149.377 Y147.324
G1 F3480 X167.771 Y128.930 E874.86320
G0 F12000 X167.771 Y128.364
G1 F3480 X149.377 Y146.758 E875.51210
G0 F12000 X149.377 Y146.192
G1 F3480 X167.771 Y127.798 E876.16099
G0 F12000 X167.771 Y127.233
G1 F3480 X149.377 Y145.627 E876.80989
G0 F12000 X149.377 Y145.061
G1 F3480 X167.771 Y126.667 E877.45879
G0 F12000 X167.771 Y126.101
G1 F3480 X149.377 Y144.495 E878.10769
G0 F12000 X149.377 Y143.930
G1 F3480 X167.771 Y125.536 E878.75659
G0 F12000 X167.771 Y124.970
G1 F3480 X149.377 Y143.364 E879.40548
G0 F12000 X149.377 Y142.798
G1 F3480 X167.771 Y124.404 E880.05438
G0 F12000 X167.771 Y123.839
G1 F3480 X149.377 Y142.233 E880.70328
G0 F12000 X149.377 Y141.667
G1 F3480 X167.771 Y123.273 E881.35218
G0 F12000 X167.771 Y122.707
G1 F3480 X149.377 Y141.101 E882.00108
G0 F12000 X149.377 Y140.536
G1 F3480 X167.771 Y122.142 E882.64997
G0 F12000 X167.771 Y121.576
G1 F3480 X149.377 Y139.970 E883.29887
G0 F12000 X149.377 Y139.404
G1 F3480 X167.771 Y121.010 E883.94777
G0 F12000 X167.771 Y120.445
G1 F3480 X149.377 Y138.839 E884.59667
G0 F12000 X149.377 Y138.273
G1 F3480 X167.771 Y119.879 E885.24557
G0 F12000 X167.771 Y119.313
G1 F3480 X149.377 Y137.707 E885.89447
G0 F12000 X149.377 Y137.141
G1 F3480 X167.771 Y118.747 E886.54336
G0 F12000 X167.771 Y118.182
G1 F3480 X149.377 Y136.576 E887.19226
G0 F12000 X149.377 Y136.010
G1 F3480 X167.771 Y117.616 E887.84116
G0 F12000 X167.771 Y117.050
G1 F3480 X149.377 Y135.444 E888.49006
G0 F12000 X149.377 Y134.879
G1 F3480 X167.771 Y116.485 E889.13896
G0 F12000 X167.771 Y115.919
G1 F3480 X149.377 Y134.313 E889.78785
G0 F12000 X149.377 Y133.747
G1 F3480 X167.771 Y115.353 E890.43675
G0 F12000 X167.771 Y114.788
G1 F3480 X149.377 Y133.182 E891.08565
G0 F12000 X149.377 Y132.616
G1 F3480 X167.771 Y114.222 E891.73455
G0 F12000 X167.771 Y113.656
G1 F3480 X149.377 Y132.050 E892.38345
G0 F12000 X149.377 Y131.485
G1 F3480 X167.771 Y113.091 E893.03234
G0 F12000 X167.771 Y112.525
G1 F3480 X149.377 Y130.919 E893.68124
G0 F12000 X149.377 Y130.353
G1 F3480 X167.771 Y111.959 E894.33014
G0 F12000 X167.771 Y111.394
G1 F3480 X149.377 Y129.788 E894.97904
G0 F12000 X149.377 Y129.222
G1 F3480 X167.771 Y110.828 E895.62794
G0 F12000 X167.771 Y110.262
G1 F3480 X149.377 Y128.656 E896.27683
G0 F12000 X149.377 Y128.090
G1 F3480 X167.771 Y109.697 E896.92571
G0 F12000 X167.771 Y109.131
G1 F3480 X149.377 Y127.525 E897.57461
G0 F12000 X149.377 Y126.959
G1 F3480 X167.771 Y108.565 E898.22351
G0 F12000 X167.771 Y107.999
G1 F3480 X149.377 Y126.393 E898.87241
G0 F12000 X149.377 Y125.828
G1 F3480 X167.771 Y107.434 E899.52131
G0 F12000 X167.431 Y107.208
G1 F3480 X149.377 Y125.262 E900.15821
G0 F12000 X149.377 Y124.696
G1 F3480 X166.865 Y107.208 E900.77515
G0 F12000 X166.300 Y107.208
G1 F3480 X149.377 Y124.131 E901.37215
G0 F12000 X149.377 Y123.565
G1 F3480 X165.734 Y107.208 E901.94919
G0 F12000 X165.168 Y107.208
G1 F3480 X149.377 Y122.999 E902.50626
G0 F12000 X149.377 Y122.434
G1 F3480 X164.603 Y107.208 E903.04340
G0 F12000 X164.037 Y107.208
G1 F3480 X149.377 Y121.868 E903.56057
G0 F12000 X149.377 Y121.302
G1 F3480 X163.471 Y107.208 E904.05777
G0 F12000 X162.906 Y107.208
G1 F3480 X149.377 Y120.737 E904.53504
G0 F12000 X149.377 Y120.171
G1 F3480 X162.340 Y107.208 E904.99235
G0 F12000 X161.774 Y107.208
G1 F3480 X149.377 Y119.605 E905.42969
G0 F12000 X149.377 Y119.040
G1 F3480 X161.209 Y107.208 E905.84709
G0 F12000 X160.643 Y107.208
G1 F3480 X149.377 Y118.474 E906.24453
G0 F12000 X149.377 Y117.908
G1 F3480 X160.077 Y107.208 E906.62200
G0 F12000 X159.511 Y107.208
G1 F3480 X149.377 Y117.342 E906.97951
G0 F12000 X149.377 Y116.777
G1 F3480 X158.946 Y107.208 E907.31708
G0 F12000 X158.380 Y107.208
G1 F3480 X149.377 Y116.211 E907.63468
G0 F12000 X149.377 Y115.645
G1 F3480 X157.814 Y107.208 E907.93232
G0 F12000 X157.249 Y107.208
G1 F3480 X149.377 Y115.080 E908.21003
G0 F12000 X149.377 Y114.514
G1 F3480 X156.683 Y107.208 E908.46777
G0 F12000 X156.117 Y107.208
G1 F3480 X149.377 Y113.948 E908.70554
G0 F12000 X149.377 Y113.383
G1 F3480 X155.552 Y107.208 E908.92338
G0 F12000 X154.986 Y107.208
G1 F3480 X149.377 Y112.817 E909.12125
G0 F12000 X149.377 Y112.251
G1 F3480 X154.420 Y107.208 E909.29916
G0 F12000 X153.855 Y107.208
G1 F3480 X149.377 Y111.686 E909.45713
G0 F12000 X149.377 Y111.120
G1 F3480 X153.289 Y107.208 E909.59514
G0 F12000 X152.723 Y107.208
G1 F3480 X149.377 Y110.554 E909.71317
G0 F12000 X149.377 Y109.989
G1 F3480 X152.158 Y107.208 E909.81128
G0 F12000 X151.592 Y107.208
G1 F3480 X149.377 Y109.423 E909.88942
G0 F12000 X149.377 Y108.857
G1 F3480 X151.026 Y107.208 E909.94760
G0 F12000 X150.461 Y107.208
G1 F3480 X149.377 Y108.291 E909.98582
G0 F12000 X149.377 Y107.726
G1 F3480 X149.895 Y107.208 E910.00409
;LAYER:2
M106 S25
G0 F12000 X149.238 Y107.069 Z1.760
;TYPE:WALL-INNER
G1 F4320 X167.913 Y107.069 E910.46994
G1 X167.913 Y160.668 E911.80697
G1 X149.238 Y160.668 E912.27282
G1 X149.238 Y107.069 E913.60986
G0 F12000 X148.838 Y106.669
;TYPE:WALL-OUTER
G1 F4320 X168.313 Y106.669 E914.09566
G1 X168.313 Y161.068 E915.45265
G1 X148.838 Y161.068 E915.93846
G1 X148.838 Y106.669 E917.29545
G0 F12000 X149.377 Y107.233
;TYPE:SKIN
G1 F4320 X167.772 Y125.628 E917.94438
G0 F12000 X167.772 Y125.063
G1 F4320 X149.918 Y107.209 E918.57423
G0 F12000 X150.484 Y107.209
G1 F4320 X167.772 Y124.497 E919.18411
G0 F12000 X167.772 Y123.931
G1 F4320 X151.050 Y107.209 E919.77402
G0 F12000 X151.615 Y107.209
G1 F4320 X167.772 Y123.366 E920.34400
G0 F12000 X167.772 Y122.800
G1 F4320 X152.181 Y107.209 E920.89402
G0 F12000 X152.747 Y107.209
G1 F4320 X167.772 Y122.234 E921.42407
G0 F12000 X167.772 Y121.669
G1 F4320 X153.312 Y107.209 E921.93418
G0 F12000 X153.878 Y107.209
G1 F4320 X167.772 Y121.103 E922.42433
G0 F12000 X167.772 Y120.537
G1 F4320 X154.444 Y107.209 E922.89451
G0 F12000 X155.009 Y107.209
G1 F4320 X167.772 Y119.971 E923.34474
G0 F12000 X167.772 Y119.406
G1 F4320 X155.575 Y107.209 E923.77502
G0 F12000 X156.141 Y107.209
G1 F4320 X167.772 Y118.840 E924.18534
G0 F12000 X167.772 Y118.274
G1 F4320 X156.706 Y107.209 E924.57570
G0 F12000 X157.272 Y107.209
G1 F4320 X167.772 Y117.709 E924.94612
G0 F12000 X167.772 Y117.143
G1 F4320 X157.838 Y107.209 E925.29657
G0 F12000 X158.403 Y107.209
G1 F4320 X167.772 Y116.577 E925.62707
G0 F12000 X167.772 Y116.012
G1 F4320 X158.969 Y107.209 E925.93762
G0 F12000 X159.535 Y107.209
G1 F4320 X167.772 Y115.446 E926.22820
G0 F12000 X167.772 Y114.880
G1 F4320 X160.100 Y107.209 E926.49883
G0 F12000 X160.666 Y107.209
G1 F4320 X167.772 Y114.315 E926.74952
G0 F12000 X167.772 Y113.749
G1 F4320 X161.232 Y107.209 E926.98023
G0 F12000 X161.798 Y107.209
G1 F4320 X167.772 Y113.183 E927.19098
G0 F12000 X167.772 Y112.618
G1 F4320 X162.363 Y107.209 E927.38180
G0 F12000 X162.929 Y107.209
G1 F4320 X167.772 Y112.052 E927.55265
G0 F12000 X167.772 Y111.486
G1 F4320 X163.495 Y107.209 E927.70353
G0 F12000 X164.060 Y107.209
G1 F4320 X167.772 Y110.921 E927.83448
G0 F12000 X167.772 Y110.355
G1 F4320 X164.626 Y107.209 E927.94547
G0 F12000 X165.192 Y107.209
G1 F4320 X167.772 Y109.789 E928.03648
G0 F12000 X167.772 Y109.223
G1 F4320 X165.757 Y107.209 E928.10755
G0 F12000 X166.323 Y107.209
G1 F4320 X167.772 Y108.658 E928.15867
G0 F12000 X167.772 Y108.092
G1 F4320 X166.889 Y107.209 E928.18982
G0 F12000 X167.454 Y107.209
G1 F4320 X167.772 Y107.526 E928.20102
G0 F12000 X149.377 Y107.799
G1 F4320 X167.772 Y126.194 E928.84995
G0 F12000 X167.772 Y126.760
G1 F4320 X149.377 Y108.364 E929.49890
G0 F12000 X149.377 Y108.930
G1 F4320 X167.772 Y127.325 E930.14784
G0 F12000 X167.772 Y127.891
G1 F4320 X149.377 Y109.496 E930.79677
G0 F12000 X149.377 Y110.061
G1 F4320 X167.772 Y128.457 E931.44572
G0 F12000 X167.772 Y129.022
G1 F4320 X149.377 Y110.627 E932.09465
G0 F12000 X149.377 Y111.193
G1 F4320 X167.772 Y129.588 E932.74359
G0 F12000 X167.772 Y130.154
G1 F4320 X149.377 Y111.758 E933.39254
G0 F12000 X149.377 Y112.324
G1 F4320 X167.772 Y130.720 E934.04149
G0 F12000 X167.772 Y131.285
G1 F4320 X149.377 Y112.890 E934.69042
G0 F12000 X149.377 Y113.455
G1 F4320 X167.772 Y131.851 E935.33937
G0 F12000 X167.772 Y132.417
G1 F4320 X149.377 Y114.021 E935.98832
G0 F12000 X149.377 Y114.587
G1 F4320 X167.772 Y132.982 E936.63726
G0 F12000 X167.772 Y133.548
G1 F4320 X149.377 Y115.153 E937.28619
G0 F12000 X149.377 Y115.718
G1 F4320 X167.772 Y134.114 E937.93514
G0 F12000 X167.772 Y134.679
G1 F4320 X149.377 Y116.284 E938.58407
G0 F12000 X149.377 Y116.850
G1 F4320 X167.772 Y135.245 E939.23301
G0 F12000 X167.772 Y135.811
G1 F4320 X149.377 Y117.415 E939.88196
G0 F12000 X149.377 Y117.981
G1 F4320 X167.772 Y136.376 E940.53089
G0 F12000 X167.772 Y136.942
G1 F4320 X149.377 Y118.547 E941.17982
G0 F12000 X149.377 Y119.112
G1 F4320 X167.772 Y137.508 E941.82878
G0 F12000 X167.772 Y138.073
G1 F4320 X149.377 Y119.678 E942.47771
G0 F12000 X149.377 Y120.244
G1 F4320 X167.772 Y138.639 E943.12664
G0 F12000 X167.772 Y139.205
G1 F4320 X149.377 Y120.809 E943.77559
G0 F12000 X149.377 Y121.375
G1 F4320 X167.772 Y139.770 E944.42453
G0 F12000 X167.772 Y140.336
G1 F4320 X149.377 Y121.941 E945.07346
G0 F12000 X149.377 Y122.506
G1 F4320 X167.772 Y140.902 E945.72241
G0 F12000 X167.772 Y141.468
G1 F4320 X149.377 Y123.072 E946.37136
G0 F12000 X149.377 Y123.638
G1 F4320 X167.772 Y142.033 E947.02030
G0 F12000 X167.772 Y142.599
G1 F4320 X149.377 Y124.204 E947.66923
G0 F12000 X149.377 Y124.769
G1 F4320 X167.772 Y143.165 E948.31818
G0 F12000 X167.772 Y143.730
G1 F4320 X149.377 Y125.335 E948.96711
G0 F12000 X149.377 Y125.901
G1 F4320 X167.772 Y144.296 E949.61605
G0 F12000 X167.772 Y144.862
G1 F4320 X149.377 Y126.466 E950.26500
G0 F12000 X149.377 Y127.032
G1 F4320 X167.772 Y145.427 E950.91393
G0 F12000 X167.772 Y145.993
G1 F4320 X149.377 Y127.598 E951.56286
G0 F12000 X149.377 Y128.163
G1 F4320 X167.772 Y146.559 E952.21181
G0 F12000 X167.772 Y147.124
G1 F4320 X149.377 Y128.729 E952.86075
G0 F12000 X149.377 Y129.295
G1 F4320 X167.772 Y147.690 E953.50968
G0 F12000 X167.772 Y148.256
G1 F4320 X149.377 Y129.860 E954.15863
G0 F12000 X149.377 Y130.426
G1 F4320 X167.772 Y148.821 E954.80757
G0 F12000 X167.772 Y149.387
G1 F4320 X149.377 Y130.992 E955.45650
G0 F12000 X149.377 Y131.557
G1 F4320 X167.772 Y149.953 E956.10545
G0 F12000 X167.772 Y150.518
G1 F4320 X149.377 Y132.123 E956.75438
G0 F12000 X149.377 Y132.689
G1 F4320 X167.772 Y151.084 E957.40332
G0 F12000 X167.772 Y151.650
G1 F4320 X149.377 Y133.254 E958.05227
G0 F12000 X149.377 Y133.820
G1 F4320 X167.772 Y152.216 E958.70122
G0 F12000 X167.772 Y152.781
G1 F4320 X149.377 Y134.386 E959.35015
G0 F12000 X149.377 Y134.952
G1 F4320 X167.772 Y153.347 E959.99908
G0 F12000 X167.772 Y153.913
G1 F4320 X149.377 Y135.517 E960.64804
G0 F12000 X149.377 Y136.083
G1 F4320 X167.772 Y154.478 E961.29697
G0 F12000 X167.772 Y155.044
G1 F4320 X149.377 Y136.649 E961.94590
G0 F12000 X149.377 Y137.214
G1 F4320 X167.772 Y155.610 E962.59485
G0 F12000 X167.772 Y156.175
G1 F4320 X149.377 Y137.780 E963.24379
G0 F12000 X149.377 Y138.346
G1 F4320 X167.772 Y156.741 E963.89272
G0 F12000 X167.772 Y157.307
G1 F4320 X149.377 Y138.911 E964.54167
G0 F12000 X149.377 Y139.477
G1 F4320 X167.772 Y157.872 E965.19060
G0 F12000 X167.772 Y158.438
G1 F4320 X149.377 Y140.043 E965.83954
G0 F12000 X149.377 Y140.608
G1 F4320 X167.772 Y159.004 E966.48849
G0 F12000 X167.772 Y159.569
G1 F4320 X149.377 Y141.174 E967.13742
G0 F12000 X149.377 Y141.740
G1 F4320 X167.772 Y160.135 E967.78635
G0 F12000 X167.598 Y160.527
G1 F4320 X149.377 Y142.305 E968.42917
G0 F12000 X149.377 Y142.871
G1 F4320 X167.032 Y160.527 E969.05201
G0 F12000 X166.467 Y160.527
G1 F4320 X149.377 Y143.437 E969.65491
G0 F12000 X149.377 Y144.003
G1 F4320 X165.901 Y160.527 E970.23784
G0 F12000 X165.335 Y160.527
G1 F4320 X149.377 Y144.568 E970.80082
G0 F12000 X149.377 Y145.134
G1 F4320 X164.770 Y160.527 E971.34385
G0 F12000 X164.204 Y160.527
G1 F4320 X149.377 Y145.700 E971.86691
G0 F12000 X149.377 Y146.265
G1 F4320 X163.638 Y160.527 E972.37002
G0 F12000 X163.072 Y160.527
G1 F4320 X149.377 Y146.831 E972.85317
G0 F12000 X149.377 Y147.397
G1 F4320 X162.507 Y160.527 E973.31636
G0 F12000 X161.941 Y160.527
G1 F4320 X149.377 Y147.962 E973.75961
G0 F12000 X149.377 Y148.528
G1 F4320 X161.375 Y160.527 E974.18289
G0 F12000 X160.810 Y160.527
G1 F4320 X149.377 Y149.094 E974.58622
G0 F12000 X149.377 Y149.659
G1 F4320 X160.244 Y160.527 E974.96960
G0 F12000 X159.678 Y160.527
G1 F4320 X149.377 Y150.225 E975.33301
G0 F12000 X149.377 Y150.791
G1 F4320 X159.113 Y160.527 E975.67648
G0 F12000 X158.547 Y160.527
G1 F4320 X149.377 Y151.356 E975.99999
G0 F12000 X149.377 Y151.922
G1 F4320 X157.981 Y160.527 E976.30354
G0 F12000 X157.416 Y160.527
G1 F4320 X149.377 Y152.488 E976.58714
G0 F12000 X149.377 Y153.053
G1 F4320 X156.850 Y160.527 E976.85078
G0 F12000 X156.284 Y160.527
G1 F4320 X149.377 Y153.619 E977.09446
G0 F12000 X149.377 Y154.185
G1 F4320 X155.719 Y160.527 E977.31820
G0 F12000 X155.153 Y160.527
G1 F4320 X149.377 Y154.751 E977.52196
G0 F12000 X149.377 Y155.316
G1 F4320 X154.587 Y160.527 E977.70577
G0 F12000 X154.021 Y160.527
G1 F4320 X149.377 Y155.882 E977.86962
G0 F12000 X149.377 Y156.448
G1 F4320 X153.456 Y160.527 E978.01352
G0 F12000 X152.890 Y160.527
G1 F4320 X149.377 Y157.013 E978.13747
G0 F12000 X149.377 Y157.579
G1 F4320 X152.324 Y160.527 E978.24145
G0 F12000 X151.759 Y160.527
G1 F4320 X149.377 Y158.145 E978.32548
G0 F12000 X149.377 Y158.710
G1 F4320 X151.193 Y160.527 E978.38956
G0 F12000 X150.627 Y160.527
G1 F4320 X149.377 Y159.276 E978.43368
G0 F12000 X149.377 Y159.842
G1 F4320 X150.062 Y160.527 E978.45784
G0 F12000 X149.496 Y160.527
G1 F4320 X149.377 Y160.407 E978.46206
;LAYER:3
M106 S38
G0 F12000 X149.238 Y160.668 Z1.910
;TYPE:WALL-INNER
G1 F5160 X149.238 Y107.069 E979.79909
G1 X167.913 Y107.069 E980.26494
G1 X167.913 Y160.668 E981.60197
G1 X149.238 Y160.668 E982.06782
G0 F12000 X148.838 Y161.068
;TYPE:WALL-OUTER
G1 F5160 X148.838 Y106.669 E983.42481
G1 X168.313 Y106.669 E983.91062
G1 X168.313 Y161.068 E985.26760
G1 X148.838 Y161.068 E985.75341
G0 F12000 X149.377 Y160.335
;TYPE:SKIN
G1 F5160 X167.771 Y141.941 E986.40231
G0 F12000 X167.771 Y142.506
G1 F5160 X149.750 Y160.528 E987.03807
G0 F12000 X150.316 Y160.528
G1 F5160 X167.771 Y143.072 E987.65386
G0 F12000 X167.771 Y143.638
G1 F5160 X150.881 Y160.528 E988.24970
G0 F12000 X151.447 Y160.528
G1 F5160 X167.771 Y144.203 E988.82559
G0 F12000 X167.771 Y144.769
G1 F5160 X152.013 Y160.528 E989.38151
G0 F12000 X152.578 Y160.528
G1 F5160 X167.771 Y145.335 E989.91748
G0 F12000 X167.771 Y145.900
G1 F5160 X153.144 Y160.528 E990.43351
G0 F12000 X153.710 Y160.528
G1 F5160 X167.771 Y146.466 E990.92957
G0 F12000 X167.771 Y147.032
G1 F5160 X154.275 Y160.528 E991.40567
G0 F12000 X154.841 Y160.528
G1 F5160 X167.771 Y147.597 E991.86183
G0 F12000 X167.771 Y148.163
G1 F5160 X155.407 Y160.528 E992.29802
G0 F12000 X155.972 Y160.528
G1 F5160 X167.771 Y148.729 E992.71427
G0 F12000 X167.771 Y149.294
G1 F5160 X156.538 Y160.528 E993.11056
G0 F12000 X157.104 Y160.528
G1 F5160 X167.771 Y149.860 E993.48688
G0 F12000 X167.771 Y150.426
G1 F5160 X157.669 Y160.528 E993.84326
G0 F12000 X158.235 Y160.528
G1 F5160 X167.771 Y150.992 E994.17967
G0 F12000 X167.771 Y151.557
G1 F5160 X158.801 Y160.528 E994.49612
G0 F12000 X159.367 Y160.528
G1 F5160 X167.771 Y152.123 E994.79262
G0 F12000 X167.771 Y152.689
G1 F5160 X159.932 Y160.528 E995.06916
G0 F12000 X160.498 Y160.528
G1 F5160 X167.771 Y153.254 E995.32575
G0 F12000 X167.771 Y153.820
G1 F5160 X161.064 Y160.528 E995.56238
G0 F12000 X161.629 Y160.528
G1 F5160 X167.771 Y154.386 E995.77905
G0 F12000 X167.771 Y154.951
G1 F5160 X162.195 Y160.528 E995.97578
G0 F12000 X162.761 Y160.528
G1 F5160 X167.771 Y155.517 E996.15254
G0 F12000 X167.771 Y156.083
G1 F5160 X163.326 Y160.528 E996.30935
G0 F12000 X163.892 Y160.528
G1 F5160 X167.771 Y156.648 E996.44621
G0 F12000 X167.771 Y157.214
G1 F5160 X164.458 Y160.528 E996.56310
G0 F12000 X165.023 Y160.528
G1 F5160 X167.771 Y157.780 E996.66004
G0 F12000 X167.771 Y158.345
G1 F5160 X165.589 Y160.528 E996.73703
G0 F12000 X166.155 Y160.528
G1 F5160 X167.771 Y158.911 E996.79406
G0 F12000 X167.771 Y159.477
G1 F5160 X166.720 Y160.528 E996.83114
G0 F12000 X167.286 Y160.528
G1 F5160 X167.771 Y160.043 E996.84825
G0 F12000 X149.377 Y159.769
G1 F5160 X167.771 Y141.375 E997.49715
G0 F12000 X167.771 Y140.809
G1 F5160 X149.377 Y159.203 E998.14604
G0 F12000 X149.377 Y158.637
G1 F5160 X167.771 Y140.244 E998.79492
G0 F12000 X167.771 Y139.678
G1 F5160 X149.377 Y158.072 E999.44382
G0 F12000 X149.377 Y157.506
G1 F5160 X167.771 Y139.112 E1000.09272
G0 F12000 X167.771 Y138.546
G1 F5160 X149.377 Y156.940 E1000.74162
G0 F12000 X149.377 Y156.375
G1 F5160 X167.771 Y137.981 E1001.39052
G0 F12000 X167.771 Y137.415
G1 F5160 X149.377 Y155.809 E1002.03941
G0 F12000 X149.377 Y155.243
G1 F5160 X167.771 Y136.849 E1002.68831
G0 F12000 X167.771 Y136.284
G1 F5160 X149.377 Y154.678 E1003.33721
G0 F12000 X149.377 Y154.112
G1 F5160 X167.771 Y135.718 E1003.98611
G0 F12000 X167.771 Y135.152
G1 F5160 X149.377 Y153.546 E1004.63501
G0 F12000 X149.377 Y152.981
G1 F5160 X167.771 Y134.587 E1005.28390
G0 F12000 X167.771 Y134.021
G1 F5160 X149.377 Y152.415 E1005.93280
G0 F12000 X149.377 Y151.849
G1 F5160 X167.771 Y133.455 E1006.58170
G0 F12000 X167.771 Y132.890
G1 F5160 X149.377 Y151.284 E1007.23060
G0 F12000 X149.377 Y150.718
G1 F5160 X167.771 Y132.324 E1007.87950
G0 F12000 X167.771 Y131.758
G1 F5160 X149.377 Y150.152 E1008.52839
G0 F12000 X149.377 Y149.587
G1 F5160 X167.771 Y131.193 E1009.17729
G0 F12000 X167.771 Y130.627
G1 F5160 X149.377 Y149.021 E1009.82619
G0 F12000 X149.377 Y148.455
G1 F5160 X167.771 Y130.061 E1010.47509
G0 F12000 X167.771 Y129.496
G1 F5160 X149.377 Y147.889 E1011.12397
G0 F12000 X149.377 Y147.324
G1 F5160 X167.771 Y128.930 E1011.77287
G0 F12000 X167.771 Y128.364
G1 F5160 X149.377 Y146.758 E1012.42176
G0 F12000 X149.377 Y146.192
G1 F5160 X167.771 Y127.798 E1013.07066
G0 F12000 X167.771 Y127.233
G1 F5160 X149.377 Y145.627 E1013.71956
G0 F12000 X149.377 Y145.061
G1 F5160 X167.771 Y126.667 E1014.36846
G0 F12000 X167.771 Y126.101
G1 F5160 X149.377 Y144.495 E1015.01736
G0 F12000 X149.377 Y143.930
G1 F5160 X167.771 Y125.536 E1015.66625
G0 F12000 X167.771 Y124.970
G1 F5160 X149.377 Y143.364 E1016.31515
G0 F12000 X149.377 Y142.798
G1 F5160 X167.771 Y124.404 E1016.96405
G0 F12000 X167.771 Y123.839
G1 F5160 X149.377 Y142.233 E1017.61295
G0 F12000 X149.377 Y141.667
G1 F5160 X167.771 Y123.273 E1018.26185
G0 F12000 X167.771 Y122.707
G1 F5160 X149.377 Y141.101 E1018.91074
G0 F12000 X149.377 Y140.536
G1 F5160 X167.771 Y122.142 E1019.55964
G0 F12000 X167.771 Y121.576
G1 F5160 X149.377 Y139.970 E1020.20854
G0 F12000 X149.377 Y139.404
G1 F5160 X167.771 Y121.010 E1020.85744
G0 F12000 X167.771 Y120.445
G1 F5160 X149.377 Y138.839 E1021.50634
G0 F12000 X149.377 Y138.273
G1 F5160 X167.771 Y119.879 E1022.15524
G0 F12000 X167.771 Y119.313
G1 F5160 X149.377 Y137.707 E1022.80413
G0 F12000 X149.377 Y137.141
G1 F5160 X167.771 Y118.747 E1023.45303
G0 F12000 X167.771 Y118.182
G1 F5160 X149.377 Y136.576 E1024.10193
G0 F12000 X149.377 Y136.010
G1 F5160 X167.771 Y117.616 E1024.75083
G0 F12000 X167.771 Y117.050
G1 F5160 X149.377 Y135.444 E1025.39973
G0 F12000 X149.377 Y134.879
G1 F5160 X167.771 Y116.485 E1026.04862
G0 F12000 X167.771 Y115.919
G1 F5160 X149.377 Y134.313 E1026.69752
G0 F12000 X149.377 Y133.747
G1 F5160 X167.771 Y115.353 E1027.34642
G0 F12000 X167.771 Y114.788
G1 F5160 X149.377 Y133.182 E1027.99532
G0 F12000 X149.377 Y132.616
G1 F5160 X167.771 Y114.222 E1028.64422
G0 F12000 X167.771 Y113.656
G1 F5160 X149.377 Y132.050 E1029.29311
G0 F12000 X149.377 Y131.485
G1 F5160 X167.771 Y113.091 E1029.94201
G0 F12000 X167.771 Y112.525
G1 F5160 X149.377 Y130.919 E1030.59091
G0 F12000 X149.377 Y130.353
G1 F5160 X167.771 Y111.959 E1031.23981
G0 F12000 X167.771 Y111.394
G1 F5160 X149.377 Y129.788 E1031.88871
G0 F12000 X149.377 Y129.222
G1 F5160 X167.771 Y110.828 E1032.53760
G0 F12000 X167.771 Y110.262
G1 F5160 X149.377 Y128.656 E1033.18650
G0 F12000 X149.377 Y128.090
G1 F5160 X167.771 Y109.697 E1033.83538
G0 F12000 X167.771 Y109.131
G1 F5160 X149.377 Y127.525 E1034.48428
G0 F12000 X149.377 Y126.959
G1 F5160 X167.771 Y108.565 E1035.13318
G0 F12000 X167.771 Y107.999
G1 F5160 X149.377 Y126.393 E1035.78208
G0 F12000 X149.377 Y125.828
G1 F5160 X167.771 Y107.434 E1036.43097
G0 F12000 X167.431 Y107.208
G1 F5160 X149.377 Y125.262 E1037.06788
G0 F12000 X149.377 Y124.696
G1 F5160 X166.865 Y107.208 E1037.68481
G0 F12000 X166.300 Y107.208
G1 F5160 X149.377 Y124.131 E1038.28182
G0 F12000 X149.377 Y123.565
G1 F5160 X165.734 Y107.208 E1038.85886
G0 F12000 X165.168 Y107.208
G1 F5160 X149.377 Y122.999 E1039.41593
G0 F12000 X149.377 Y122.434
G1 F5160 X164.603 Y107.208 E1039.95306
G0 F12000 X164.037 Y107.208
G1 F5160 X149.377 Y121.868 E1040.47024
G0 F12000 X149.377 Y121.302
G1 F5160 X163.471 Y107.208 E1040.96744
G0 F12000 X162.906 Y107.208
G1 F5160 X149.377 Y120.737 E1041.44471
G0 F12000 X149.377 Y120.171
G1 F5160 X162.340 Y107.208 E1041.90202
G0 F12000 X161.774 Y107.208
G1 F5160 X149.377 Y119.605 E1042.33935
G0 F12000 X149.377 Y119.040
G1 F5160 X161.209 Y107.208 E1042.75676
G0 F12000 X160.643 Y107.208
G1 F5160 X149.377 Y118.474 E1043.15420
G0 F12000 X149.377 Y117.908
G1 F5160 X160.077 Y107.208 E1043.53167
G0 F12000 X159.511 Y107.208
G1 F5160 X149.377 Y117.342 E1043.88917
G0 F12000 X149.377 Y116.777
G1 F5160 X158.946 Y107.208 E1044.22675
G0 F12000 X158.380 Y107.208
G1 F5160 X149.377 Y116.211 E1044.54435
G0 F12000 X149.377 Y115.645
G1 F5160 X157.814 Y107.208 E1044.84199
G0 F12000 X157.249 Y107.208
G1 F5160 X149.377 Y115.080 E1045.11970
G0 F12000 X149.377 Y114.514
G1 F5160 X156.683 Y107.208 E1045.37743
G0 F12000 X156.117 Y107.208
G1 F5160 X149.377 Y113.948 E1045.61521
G0 F12000 X149.377 Y113.383
G1 F5160 X155.552 Y107.208 E1045.83305
G0 F12000 X154.986 Y107.208
G1 F5160 X149.377 Y112.817 E1046.03092
G0 F12000 X149.377 Y112.251
G1 F5160 X154.420 Y107.208 E1046.20882
G0 F12000 X153.855 Y107.208
G1 F5160 X149.377 Y111.686 E1046.36680
G0 F12000 X149.377 Y111.120
G1 F5160 X153.289 Y107.208 E1046.50480
G0 F12000 X152.723 Y107.208
G1 F5160 X149.377 Y110.554 E1046.62284
G0 F12000 X149.377 Y109.989
G1 F5160 X152.158 Y107.208 E1046.72095
G0 F12000 X151.592 Y107.208
G1 F5160 X149.377 Y109.423 E1046.79909
G0 F12000 X149.377 Y108.857
G1 F5160 X151.026 Y107.208 E1046.85726
G0 F12000 X150.461 Y107.208
G1 F5160 X149.377 Y108.291 E1046.89549
G0 F12000 X149.377 Y107.726
G1 F5160 X149.895 Y107.208 E1046.91376
;LAYER:4
M106 S53
G0 F12000 X149.238 Y107.069 Z2.060
;TYPE:WALL-INNER
G1 F6000 X167.913 Y107.069 E1047.37961
G1 X167.913 Y160.668 E1048.71664
G1 X149.238 Y160.668 E1049.18249
G1 X149.238 Y107.069 E1050.51952
G0 F12000 X148.838 Y106.669
;TYPE:WALL-OUTER
G1 F6000 X168.313 Y106.669 E1051.00533
G1 X168.313 Y161.068 E1052.36232
G1 X148.838 Y161.068 E1052.84813
G1 X148.838 Y106.669 E1054.20511
G0 F12000 X149.377 Y107.233
;TYPE:SKIN
G1 F6000 X167.772 Y125.628 E1054.85405
G0 F12000 X167.772 Y125.063
G1 F6000 X149.918 Y107.209 E1055.48390
G0 F12000 X150.484 Y107.209
G1 F6000 X167.772 Y124.497 E1056.09378
G0 F12000 X167.772 Y123.931
G1 F6000 X151.050 Y107.209 E1056.68369
G0 F12000 X151.615 Y107.209
G1 F6000 X167.772 Y123.366 E1057.25367
G0 F12000 X167.772 Y122.800
G1 F6000 X152.181 Y107.209 E1057.80369
G0 F12000 X152.747 Y107.209
G1 F6000 X167.772 Y122.234 E1058.33373
G0 F12000 X167.772 Y121.669
G1 F6000 X153.312 Y107.209 E1058.84385
G0 F12000 X153.878 Y107.209
G1 F6000 X167.772 Y121.103 E1059.33400
G0 F12000 X167.772 Y120.537
G1 F6000 X154.444 Y107.209 E1059.80418
G0 F12000 X155.009 Y107.209
G1 F6000 X167.772 Y119.971 E1060.25441
G0 F12000 X167.772 Y119.406
G1 F6000 X155.575 Y107.209 E1060.68469
G0 F12000 X156.141 Y107.209
G1 F6000 X167.772 Y118.840 E1061.09501
G0 F12000 X167.772 Y118.274
G1 F6000 X156.706 Y107.209 E1061.48537
G0 F12000 X157.272 Y107.209
G1 F6000 X167.772 Y117.709 E1061.85579
G0 F12000 X167.772 Y117.143
G1 F6000 X157.838 Y107.209 E1062.20624
G0 F12000 X158.403 Y107.209
G1 F6000 X167.772 Y116.577 E1062.53674
G0 F12000 X167.772 Y116.012
G1 F6000 X158.969 Y107.209 E1062.84729
G0 F12000 X159.535 Y107.209
G1 F6000 X167.772 Y115.446 E1063.13787
G0 F12000 X167.772 Y114.880
G1 F6000 X160.100 Y107.209 E1063.40850
G0 F12000 X160.666 Y107.209
G1 F6000 X167.772 Y114.315 E1063.65918
G0 F12000 X167.772 Y113.749
G1 F6000 X161.232 Y107.209 E1063.88990
G0 F12000 X161.798 Y107.209
G1 F6000 X167.772 Y113.183 E1064.10065
G0 F12000 X167.772 Y112.618
G1 F6000 X162.363 Y107.209 E1064.29147
G0 F12000 X162.929 Y107.209
G1 F6000 X167.772 Y112.052 E1064.46232
G0 F12000 X167.772 Y111.486
G1 F6000 X163.495 Y107.209 E1064.61320
G0 F12000 X164.060 Y107.209
G1 F6000 X167.772 Y110.921 E1064.74415
G0 F12000 X167.772 Y110.355
G1 F6000 X164.626 Y107.209 E1064.85513
G0 F12000 X165.192 Y107.209
G1 F6000 X167.772 Y109.789 E1064.94615
G0 F12000 X167.772 Y109.223
G1 F6000 X165.757 Y107.209 E1065.01722
G0 F12000 X166.323 Y107.209
G1 F6000 X167.772 Y108.658 E1065.06833
G0 F12000 X167.772 Y108.092
G1 F6000 X166.889 Y107.209 E1065.09948
G0 F12000 X167.454 Y107.209
G1 F6000 X167.772 Y107.526 E1065.11069
G0 F12000 X149.377 Y107.799
G1 F6000 X167.772 Y126.194 E1065.75962
G0 F12000 X167.772 Y126.760
G1 F6000 X149.377 Y108.364 E1066.40857
G0 F12000 X149.377 Y108.930
G1 F6000 X167.772 Y127.325 E1067.05750
G0 F12000 X167.772 Y127.891
G1 F6000 X149.377 Y109.496 E1067.70644
G0 F12000 X149.377 Y110.061
G1 F6000 X167.772 Y128.457 E1068.35539
G0 F12000 X167.772 Y129.022
G1 F6000 X149.377 Y110.627 E1069.00432
G0 F12000 X149.377 Y111.193
G1 F6000 X167.772 Y129.588 E1069.65325
G0 F12000 X167.772 Y130.154
G1 F6000 X149.377 Y111.758 E1070.30220
G0 F12000 X149.377 Y112.324
G1 F6000 X167.772 Y130.720 E1070.95116
G0 F12000 X167.772 Y131.285
G1 F6000 X149.377 Y112.890 E1071.60009
G0 F12000 X149.377 Y113.455
G1 F6000 X167.772 Y131.851 E1072.24904
G0 F12000 X167.772 Y132.417
G1 F6000 X149.377 Y114.021 E1072.89799
G0 F12000 X149.377 Y114.587
G1 F6000 X167.772 Y132.982 E1073.54692
G0 F12000 X167.772 Y133.548
G1 F6000 X149.377 Y115.153 E1074.19586
G0 F12000 X149.377 Y115.718
G1 F6000 X167.772 Y134.114 E1074.84481
G0 F12000 X167.772 Y134.679
G1 F6000 X149.377 Y116.284 E1075.49374
G0 F12000 X149.377 Y116.850
G1 F6000 X167.772 Y135.245 E1076.14268
G0 F12000 X167.772 Y135.811
G1 F6000 X149.377 Y117.415 E1076.79163
G0 F12000 X149.377 Y117.981
G1 F6000 X167.772 Y136.376 E1077.44056
G0 F12000 X167.772 Y136.942
G1 F6000 X149.377 Y118.547 E1078.08949
G0 F12000 X149.377 Y119.112
G1 F6000 X167.772 Y137.508 E1078.73844
G0 F12000 X167.772 Y138.073
G1 F6000 X149.377 Y119.678 E1079.38738
G0 F12000 X149.377 Y120.244
G1 F6000 X167.772 Y138.639 E1080.03631
G0 F12000 X167.772 Y139.205
G1 F6000 X149.377 Y120.809 E1080.68526
G0 F12000 X149.377 Y121.375
G1 F6000 X167.772 Y139.770 E1081.33419
G0 F12000 X167.772 Y140.336
G1 F6000 X149.377 Y121.941 E1081.98313
G0 F12000 X149.377 Y122.506
G1 F6000 X167.772 Y140.902 E1082.63208
G0 F12000 X167.772 Y141.468
G1 F6000 X149.377 Y123.072 E1083.28103
G0 F12000 X149.377 Y123.638
G1 F6000 X167.772 Y142.033 E1083.92996
G0 F12000 X167.772 Y142.599
G1 F6000 X149.377 Y124.204 E1084.57890
G0 F12000 X149.377 Y124.769
G1 F6000 X167.772 Y143.165 E1085.22785
G0 F12000 X167.772 Y143.730
G1 F6000 X149.377 Y125.335 E1085.87678
G0 F12000 X149.377 Y125.901
G1 F6000 X167.772 Y144.296 E1086.52571
G0 F12000 X167.772 Y144.862
G1 F6000 X149.377 Y126.466 E1087.17466
G0 F12000 X149.377 Y127.032
G1 F6000 X167.772 Y145.427 E1087.82360
G0 F12000 X167.772 Y145.993
G1 F6000 X149.377 Y127.598 E1088.47253
G0 F12000 X149.377 Y128.163
G1 F6000 X167.772 Y146.559 E1089.12148
G0 F12000 X167.772 Y147.124
G1 F6000 X149.377 Y128.729 E1089.77042
G0 F12000 X149.377 Y129.295
G1 F6000 X167.772 Y147.690 E1090.41935
G0 F12000 X167.772 Y148.256
G1 F6000 X149.377 Y129.860 E1091.06830
G0 F12000 X149.377 Y130.426
G1 F6000 X167.772 Y148.821 E1091.71723
G0 F12000 X167.772 Y149.387
G1 F6000 X149.377 Y130.992 E1092.36617
G0 F12000 X149.377 Y131.557
G1 F6000 X167.772 Y149.953 E1093.01512
G0 F12000 X167.772 Y150.518
G1 F6000 X149.377 Y132.123 E1093.66405
G0 F12000 X149.377 Y132.689
G1 F6000 X167.772 Y151.084 E1094.31298
G0 F12000 X167.772 Y151.650
G1 F6000 X149.377 Y133.254 E1094.96193
G0 F12000 X149.377 Y133.820
G1 F6000 X167.772 Y152.216 E1095.61089
G0 F12000 X167.772 Y152.781
G1 F6000 X149.377 Y134.386 E1096.25982
G0 F12000 X149.377 Y134.952
G1 F6000 X167.772 Y153.347 E1096.90875
G0 F12000 X167.772 Y153.913
G1 F6000 X149.377 Y135.517 E1097.55770
G0 F12000 X149.377 Y136.083
G1 F6000 X167.772 Y154.478 E1098.20664
G0 F12000 X167.772 Y155.044
G1 F6000 X149.377 Y136.649 E1098.85557
G0 F12000 X149.377 Y137.214
G1 F6000 X167.772 Y155.610 E1099.50452
G0 F12000 X167.772 Y156.175
G1 F6000 X149.377 Y137.780 E1100.15345
G0 F12000 X149.377 Y138.346
G1 F6000 X167.772 Y156.741 E1100.80239
G0 F12000 X167.772 Y157.307
G1 F6000 X149.377 Y138.911 E1101.45134
G0 F12000 X149.377 Y139.477
G1 F6000 X167.772 Y157.872 E1102.10027
G0 F12000 X167.772 Y158.438
G1 F6000 X149.377 Y140.043 E1102.74921
G0 F12000 X149.377 Y140.608
G1 F6000 X167.772 Y159.004 E1103.39816
G0 F12000 X167.772 Y159.569
G1 F6000 X149.377 Y141.174 E1104.04709
G0 F12000 X149.377 Y141.740
G1 F6000 X167.772 Y160.135 E1104.69602
G0 F12000 X167.598 Y160.527
G1 F6000 X149.377 Y142.305 E1105.33884
G0 F12000 X149.377 Y142.871
G1 F6000 X167.032 Y160.527 E1105.96168
G0 F12000 X166.467 Y160.527
G1 F6000 X149.377 Y143.437 E1106.56458
G0 F12000 X149.377 Y144.003
G1 F6000 X165.901 Y160.527 E1107.14751
G0 F12000 X165.335 Y160.527
G1 F6000 X149.377 Y144.568 E1107.71048
G0 F12000 X149.377 Y145.134
G1 F6000 X164.770 Y160.527 E1108.25351
G0 F12000 X164.204 Y160.527
G1 F6000 X149.377 Y145.700 E1108.77658
G0 F12000 X149.377 Y146.265
G1 F6000 X163.638 Y160.527 E1109.27969
G0 F12000 X163.072 Y160.527
G1 F6000 X149.377 Y146.831 E1109.76284
G0 F12000 X149.377 Y147.397
G1 F6000 X162.507 Y160.527 E1110.22603
G0 F12000 X161.941 Y160.527
G1 F6000 X149.377 Y147.962 E1110.66928
G0 F12000 X149.377 Y148.528
G1 F6000 X161.375 Y160.527 E1111.09256
G0 F12000 X160.810 Y160.527
G1 F6000 X149.377 Y149.094 E1111.49589
G0 F12000 X149.377 Y149.659
G1 F6000 X160.244 Y160.527 E1111.87927
G0 F12000 X159.678 Y160.527
G1 F6000 X149.377 Y150.225 E1112.24268
G0 F12000 X149.377 Y150.791
G1 F6000 X159.113 Y160.527 E1112.58615
G0 F12000 X158.547 Y160.527
G1 F6000 X149.377 Y151.356 E1112.90966
G0 F12000 X149.377 Y151.922
G1 F6000 X157.981 Y160.527 E1113.21321
G0 F12000 X157.416 Y160.527
G1 F6000 X149.377 Y152.488 E1113.49680
G0 F12000 X149.377 Y153.053
G1 F6000 X156.850 Y160.527 E1113.76045
G0 F12000 X156.284 Y160.527
G1 F6000 X149.377 Y153.619 E1114.00413
G0 F12000 X149.377 Y154.185
G1 F6000 X155.719 Y160.527 E1114.22786
G0 F12000 X155.153 Y160.527
G1 F6000 X149.377 Y154.751 E1114.43163
G0 F12000 X149.377 Y155.316
G1 F6000 X154.587 Y160.527 E1114.61544
G0 F12000 X154.021 Y160.527
G1 F6000 X149.377 Y155.882 E1114.77929
G0 F12000 X149.377 Y156.448
G1 F6000 X153.456 Y160.527 E1114.92319
G0 F12000 X152.890 Y160.527
G1 F6000 X149.377 Y157.013 E1115.04714
G0 F12000 X149.377 Y157.579
G1 F6000 X152.324 Y160.527 E1115.15112
G0 F12000 X151.759 Y160.527
G1 F6000 X149.377 Y158.145 E1115.23515
G0 F12000 X149.377 Y158.710
G1 F6000 X151.193 Y160.527 E1115.29923
G0 F12000 X150.627 Y160.527
G1 F6000 X149.377 Y159.276 E1115.34334
G0 F12000 X149.377 Y159.842
G1 F6000 X150.062 Y160.527 E1115.36751
G0 F12000 X149.496 Y160.527
G1 F6000 X149.377 Y160.407 E1115.37173
;LAYER:5
M106 S66
G0 F12000 X149.238 Y160.668 Z2.210
;TYPE:WALL-INNER
G1 F6000 X149.238 Y107.069 E1116.70876
G1 X167.913 Y107.069 E1117.17461
G1 X167.913 Y160.668 E1118.51164
G1 X149.238 Y160.668 E1118.97749
G0 F12000 X148.838 Y161.068
;TYPE:WALL-OUTER
G1 F6000 X148.838 Y106.669 E1120.33448
G1 X168.313 Y106.669 E1120.82028
G1 X168.313 Y161.068 E1122.17727
G1 X148.838 Y161.068 E1122.66308
G0 F12000 X149.377 Y160.335
;TYPE:SKIN
G1 F6000 X167.771 Y141.941 E1123.31198
G0 F12000 X167.771 Y142.506
G1 F6000 X149.750 Y160.528 E1123.94773
G0 F12000 X150.316 Y160.528
G1 F6000 X167.771 Y143.072 E1124.56352
G0 F12000 X167.771 Y143.638
G1 F6000 X150.881 Y160.528 E1125.15936
G0 F12000 X151.447 Y160.528
G1 F6000 X167.771 Y144.203 E1125.73525
G0 F12000 X167.771 Y144.769
G1 F6000 X152.013 Y160.528 E1126.29118
G0 F12000 X152.578 Y160.528
G1 F6000 X167.771 Y145.335 E1126.82715
G0 F12000 X167.771 Y145.900
G1 F6000 X153.144 Y160.528 E1127.34318
G0 F12000 X153.710 Y160.528
G1 F6000 X167.771 Y146.466 E1127.83923
G0 F12000 X167.771 Y147.032
G1 F6000 X154.275 Y160.528 E1128.31534
G0 F12000 X154.841 Y160.528
G1 F6000 X167.771 Y147.597 E1128.77150
G0 F12000 X167.771 Y148.163
G1 F6000 X155.407 Y160.528 E1129.20769
G0 F12000 X155.972 Y160.528
G1 F6000 X167.771 Y148.729 E1129.62393
G0 F12000 X167.771 Y149.294
G1 F6000 X156.538 Y160.528 E1130.02023
G0 F12000 X157.104 Y160.528
G1 F6000 X167.771 Y149.860 E1130.39655
G0 F12000 X167.771 Y150.426
G1 F6000 X157.669 Y160.528 E1130.75293
G0 F12000 X158.235 Y160.528
G1 F6000 X167.771 Y150.992 E1131.08933
G0 F12000 X167.771 Y151.557
G1 F6000 X158.801 Y160.528 E1131.40579
G0 F12000 X159.367 Y160.528
G1 F6000 X167.771 Y152.123 E1131.70228
G0 F12000 X167.771 Y152.689
G1 F6000 X159.932 Y160.528 E1131.97883
G0 F12000 X160.498 Y160.528
G1 F6000 X167.771 Y153.254 E1132.23542
G0 F12000 X167.771 Y153.820
G1 F6000 X161.064 Y160.528 E1132.47204
G0 F12000 X161.629 Y160.528
G1 F6000 X167.771 Y154.386 E1132.68872
G0 F12000 X167.771 Y154.951
G1 F6000 X162.195 Y160.528 E1132.88544
G0 F12000 X162.761 Y160.528
G1 F6000 X167.771 Y155.517 E1133.06220
G0 F12000 X167.771 Y156.083
G1 F6000 X163.326 Y160.528 E1133.21901
G0 F12000 X163.892 Y160.528
G1 F6000 X167.771 Y156.648 E1133.35587
G0 F12000 X167.771 Y157.214
G1 F6000 X164.458 Y160.528 E1133.47277
G0 F12000 X165.023 Y160.528
G1 F6000 X167.771 Y157.780 E1133.56971
G0 F12000 X167.771 Y158.345
G1 F6000 X165.589 Y160.528 E1133.64670
G0 F12000 X166.155 Y160.528
G1 F6000 X167.771 Y158.911 E1133.70373
G0 F12000 X167.771 Y159.477
G1 F6000 X166.720 Y160.528 E1133.74081
G0 F12000 X167.286 Y160.528
G1 F6000 X167.771 Y160.043 E1133.75792
G0 F12000 X149.377 Y159.769
G1 F6000 X167.771 Y141.375 E1134.40681
G0 F12000 X167.771 Y140.809
G1 F6000 X149.377 Y159.203 E1135.05571
G0 F12000 X149.377 Y158.637
G1 F6000 X167.771 Y140.244 E1135.70459
G0 F12000 X167.771 Y139.678
G1 F6000 X149.377 Y158.072 E1136.35349
G0 F12000 X149.377 Y157.506
G1 F6000 X167.771 Y139.112 E1137.00239
G0 F12000 X167.771 Y138.546
G1 F6000 X149.377 Y156.940 E1137.65129
G0 F12000 X149.377 Y156.375
G1 F6000 X167.771 Y137.981 E1138.30018
G0 F12000 X167.771 Y137.415
G1 F6000 X149.377 Y155.809 E1138.94908
G0 F12000 X149.377 Y155.243
G1 F6000 X167.771 Y136.849 E1139.59798
G0 F12000 X167.771 Y136.284
G1 F6000 X149.377 Y154.678 E1140.24688
G0 F12000 X149.377 Y154.112
G1 F6000 X167.771 Y135.718 E1140.89578
G0 F12000 X167.771 Y135.152
G1 F6000 X149.377 Y153.546 E1141.54467
G0 F12000 X149.377 Y152.981
G1 F6000 X167.771 Y134.587 E1142.19357
G0 F12000 X167.771 Y134.021
G1 F6000 X149.377 Y152.415 E1142.84247
G0 F12000 X149.377 Y151.849
G1 F6000 X167.771 Y133.455 E1143.49137
G0 F12000 X167.771 Y132.890
G1 F6000 X149.377 Y151.284 E1144.14027
G0 F12000 X149.377 Y150.718
G1 F6000 X167.771 Y132.324 E1144.78916
G0 F12000 X167.771 Y131.758
G1 F6000 X149.377 Y150.152 E1145.43806
G0 F12000 X149.377 Y149.587
G1 F6000 X167.771 Y131.193 E1146.08696
G0 F12000 X167.771 Y130.627
G1 F6000 X149.377 Y149.021 E1146.73586
G0 F12000 X149.377 Y148.455
G1 F6000 X167.771 Y130.061 E1147.38476
G0 F12000 X167.771 Y129.496
G1 F6000 X149.377 Y147.889 E1148.03364
G0 F12000 X149.377 Y147.324
G1 F6000 X167.771 Y128.930 E1148.68253
G0 F12000 X167.771 Y128.364
G1 F6000 X149.377 Y146.758 E1149.33143
G0 F12000 X149.377 Y146.192
G1 F6000 X167.771 Y127.798 E1149.98033
G0 F12000 X167.771 Y127.233
G1 F6000 X149.377 Y145.627 E1150.62923
G0 F12000 X149.377 Y145.061
G1 F6000 X167.771 Y126.667 E1151.27813
G0 F12000 X167.771 Y126.101
G1 F6000 X149.377 Y144.495 E1151.92702
G0 F12000 X149.377 Y143.930
G1 F6000 X167.771 Y125.536 E1152.57592
G0 F12000 X167.771 Y124.970
G1 F6000 X149.377 Y143.364 E1153.22482
G0 F12000 X149.377 Y142.798
G1 F6000 X167.771 Y124.404 E1153.87372
G0 F12000 X167.771 Y123.839
G1 F6000 X149.377 Y142.233 E1154.52262
G0 F12000 X149.377 Y141.667
G1 F6000 X167.771 Y123.273 E1155.17151
G0 F12000 X167.771 Y122.707
G1 F6000 X149.377 Y141.101 E1155.82041
G0 F12000 X149.377 Y140.536
G1 F6000 X167.771 Y122.142 E1156.46931
G0 F12000 X167.771 Y121.576
G1 F6000 X149.377 Y139.970 E1157.11821
G0 F12000 X149.377 Y139.404
G1 F6000 X167.771 Y121.010 E1157.76711
G0 F12000 X167.771 Y120.445
G1 F6000 X149.377 Y138.839 E1158.41601
G0 F12000 X149.377 Y138.273
G1 F6000 X167.771 Y119.879 E1159.06490
G0 F12000 X167.771 Y119.313
G1 F6000 X149.377 Y137.707 E1159.71380
G0 F12000 X149.377 Y137.141
G1 F6000 X167.771 Y118.747 E1160.36270
G0 F12000 X167.771 Y118.182
G1 F6000 X149.377 Y136.576 E1161.01160
G0 F12000 X149.377 Y136.010
G1 F6000 X167.771 Y117.616 E1161.66050
G0 F12000 X167.771 Y117.050
G1 F6000 X149.377 Y135.444 E1162.30939
G0 F12000 X149.377 Y134.879
G1 F6000 X167.771 Y116.485 E1162.95829
G0 F12000 X167.771 Y115.919
G1 F6000 X149.377 Y134.313 E1163.60719
G0 F12000 X149.377 Y133.747
G1 F6000 X167.771 Y115.353 E1164.25609
G0 F12000 X167.771 Y114.788
G1 F6000 X149.377 Y133.182 E1164.90499
G0 F12000 X149.377 Y132.616
G1 F6000 X167.771 Y114.222 E1165.55388
G0 F12000 X167.771 Y113.656
G1 F6000 X149.377 Y132.050 E1166.20278
G0 F12000 X149.377 Y131.485
G1 F6000 X167.771 Y113.091 E1166.85168
G0 F12000 X167.771 Y112.525
G1 F6000 X149.377 Y130.919 E1167.50058
G0 F12000 X149.377 Y130.353
G1 F6000 X167.771 Y111.959 E1168.14948
G0 F12000 X167.771 Y111.394
G1 F6000 X149.377 Y129.788 E1168.79837
G0 F12000 X149.377 Y129.222
G1 F6000 X167.771 Y110.828 E1169.44727
G0 F12000 X167.771 Y110.262
G1 F6000 X149.377 Y128.656 E1170.09617
G0 F12000 X149.377 Y128.090
G1 F6000 X167.771 Y109.697 E1170.74505
G0 F12000 X167.771 Y109.131
G1 F6000 X149.377 Y127.525 E1171.39395
G0 F12000 X149.377 Y126.959
G1 F6000 X167.771 Y108.565 E1172.04285
G0 F12000 X167.771 Y107.999
G1 F6000 X149.377 Y126.393 E1172.69174
G0 F12000 X149.377 Y125.828
G1 F6000 X167.771 Y107.434 E1173.34064
G0 F12000 X167.431 Y107.208
G1 F6000 X149.377 Y125.262 E1173.97755
G0 F12000 X149.377 Y124.696
G1 F6000 X166.865 Y107.208 E1174.59448
G0 F12000 X166.300 Y107.208
G1 F6000 X149.377 Y124.131 E1175.19149
G0 F12000 X149.377 Y123.565
G1 F6000 X165.734 Y107.208 E1175.76852
G0 F12000 X165.168 Y107.208
G1 F6000 X149.377 Y122.999 E1176.32559
G0 F12000 X149.377 Y122.434
G1 F6000 X164.603 Y107.208 E1176.86273
G0 F12000 X164.037 Y107.208
G1 F6000 X149.377 Y121.868 E1177.37990
G0 F12000 X149.377 Y121.302
G1 F6000 X163.471 Y107.208 E1177.87711
G0 F12000 X162.906 Y107.208
G1 F6000 X149.377 Y120.737 E1178.35438
G0 F12000 X149.377 Y120.171
G1 F6000 X162.340 Y107.208 E1178.81168
G0 F12000 X161.774 Y107.208
G1 F6000 X149.377 Y119.605 E1179.24902
G0 F12000 X149.377 Y119.040
G1 F6000 X161.209 Y107.208 E1179.66643
G0 F12000 X160.643 Y107.208
G1 F6000 X149.377 Y118.474 E1180.06387
G0 F12000 X149.377 Y117.908
G1 F6000 X160.077 Y107.208 E1180.44134
G0 F12000 X159.511 Y107.208
G1 F6000 X149.377 Y117.342 E1180.79884
G0 F12000 X149.377 Y116.777
G1 F6000 X158.946 Y107.208 E1181.13641
G0 F12000 X158.380 Y107.208
G1 F6000 X149.377 Y116.211 E1181.45402
G0 F12000 X149.377 Y115.645
G1 F6000 X157.814 Y107.208 E1181.75166
G0 F12000 X157.249 Y107.208
G1 F6000 X149.377 Y115.080 E1182.02936
G0 F12000 X149.377 Y114.514
G1 F6000 X156.683 Y107.208 E1182.28710
G0 F12000 X156.117 Y107.208
G1 F6000 X149.377 Y113.948 E1182.52487
G0 F12000 X149.377 Y113.383
G1 F6000 X155.552 Y107.208 E1182.74271
G0 F12000 X154.986 Y107.208
G1 F6000 X149.377 Y112.817 E1182.94059
G0 F12000 X149.377 Y112.251
G1 F6000 X154.420 Y107.208 E1183.11849
G0 F12000 X153.855 Y107.208
G1 F6000 X149.377 Y111.686 E1183.27647
G0 F12000 X149.377 Y111.120
G1 F6000 X153.289 Y107.208 E1183.41447
G0 F12000 X152.723 Y107.208
G1 F6000 X149.377 Y110.554 E1183.53251
G0 F12000 X149.377 Y109.989
G1 F6000 X152.158 Y107.208 E1183.63062
G0 F12000 X151.592 Y107.208
G1 F6000 X149.377 Y109.423 E1183.70876
G0 F12000 X149.377 Y108.857
G1 F6000 X151.026 Y107.208 E1183.76693
G0 F12000 X150.461 Y107.208
G1 F6000 X149.377 Y108.291 E1183.80515
G0 F12000 X149.377 Y107.726
G1 F6000 X149.895 Y107.208 E1183.82343
;LAYER:6
M106 S79
G0 F12000 X149.377 Y107.516 Z2.360
;TYPE:FILL
G1 F6000 X167.772 Y125.911 E1184.47236
G0 F12000 X167.772 Y128.174
G1 F6000 X149.377 Y109.779 E1185.12129
G0 F12000 X149.377 Y112.041
G1 F6000 X167.772 Y130.437 E1185.77025
G0 F12000 X167.772 Y132.699
G1 F6000 X149.377 Y114.304 E1186.41918
G0 F12000 X149.377 Y116.567
G1 F6000 X167.772 Y134.962 E1187.06811
G0 F12000 X167.772 Y137.225
G1 F6000 X149.377 Y118.830 E1187.71705
G0 F12000 X151.332 Y107.209
G1 F6000 X167.772 Y123.648 E1188.29699
G0 F12000 X167.772 Y121.386
G1 F6000 X153.595 Y107.209 E1188.79713
G0 F12000 X155.858 Y107.209
G1 F6000 X167.772 Y119.123 E1189.21742
G0 F12000 X167.772 Y116.860
G1 F6000 X158.121 Y107.209 E1189.55789
G0 F12000 X160.383 Y107.209
G1 F6000 X167.772 Y114.597 E1189.81854
G0 F12000 X167.772 Y112.335
G1 F6000 X162.646 Y107.209 E1189.99937
G0 F12000 X164.909 Y107.209
G1 F6000 X167.772 Y110.072 E1190.10037
G0 F12000 X167.772 Y107.809
G1 F6000 X167.172 Y107.209 E1190.12154
G0 F12000 X149.377 Y121.092
G1 F6000 X167.772 Y139.488 E1190.77049
G0 F12000 X167.772 Y141.750
G1 F6000 X149.377 Y123.355 E1191.41942
G0 F12000 X149.377 Y125.618
G1 F6000 X167.772 Y144.013 E1192.06836
G0 F12000 X167.772 Y146.276
G1 F6000 X149.377 Y127.880 E1192.71731
G0 F12000 X149.377 Y130.143
G1 F6000 X167.772 Y148.539 E1193.36626
G0 F12000 X167.772 Y150.801
G1 F6000 X149.377 Y132.406 E1194.01519
G0 F12000 X149.377 Y134.669
G1 F6000 X167.772 Y153.064 E1194.66412
G0 F12000 X167.772 Y155.327
G1 F6000 X149.377 Y136.931 E1195.31308
G0 F12000 X149.377 Y139.194
G1 F6000 X167.772 Y157.590 E1195.96203
G0 F12000 X167.772 Y159.852
G1 F6000 X149.377 Y141.457 E1196.61096
G0 F12000 X149.377 Y143.720
G1 F6000 X166.184 Y160.527 E1197.20387
G0 F12000 X163.921 Y160.527
G1 F6000 X149.377 Y145.982 E1197.71697
G0 F12000 X149.377 Y148.245
G1 F6000 X161.658 Y160.527 E1198.15023
G0 F12000 X159.396 Y160.527
G1 F6000 X149.377 Y150.508 E1198.50368
G0 F12000 X149.377 Y152.771
G1 F6000 X157.133 Y160.527 E1198.77729
G0 F12000 X154.870 Y160.527
G1 F6000 X149.377 Y155.033 E1198.97109
G0 F12000 X149.377 Y157.296
G1 F6000 X152.607 Y160.527 E1199.08506
G0 F12000 X150.345 Y160.527
G1 F6000 X149.377 Y159.559 E1199.11920
G0 F12000 X149.238 Y160.668
;TYPE:WALL-INNER
G1 F6000 X149.238 Y107.069 E1200.45624
G1 X167.913 Y107.069 E1200.92209
G1 X167.913 Y160.668 E1202.25912
G1 X149.238 Y160.668 E1202.72497
G0 F12000 X148.838 Y161.068
;TYPE:WALL-OUTER
G1 F6000 X148.838 Y106.669 E1204.08196
G1 X168.313 Y106.669 E1204.56776
G1 X168.313 Y161.068 E1205.92475
G1 X148.838 Y161.068 E1206.41056
G0 F12000 X149.838 Y160.068
;LAYER:7
M106 S91
G0 X150.598 Y160.528 Z2.510
;TYPE:FILL
G1 F6000 X151.719 Y159.407 E1206.45010
G0 F12000 X152.861 Y160.528
G1 F6000 X153.982 Y159.407 E1206.48965
G0 F12000 X155.124 Y160.528
G1 F6000 X156.245 Y159.407 E1206.52920
G0 F12000 X157.387 Y160.528
G1 F6000 X158.507 Y159.407 E1206.56873
G0 F12000 X150.497 Y158.367
G1 F6000 X149.377 Y159.486 E1206.60822
G0 F12000 X149.377 Y157.223
G1 F6000 X150.497 Y156.104 E1206.64771
G0 F12000 X149.377 Y154.961
G1 F6000 X150.497 Y153.841 E1206.68722
G0 F12000 X149.377 Y152.698
G1 F6000 X150.497 Y151.578 E1206.72673
G0 F12000 X149.377 Y150.435
G1 F6000 X150.497 Y149.316 E1206.76623
G0 F12000 X149.377 Y148.172
G1 F6000 X150.497 Y147.053 E1206.80572
G0 F12000 X149.377 Y145.910
G1 F6000 X150.497 Y144.790 E1206.84523
G0 F12000 X149.377 Y143.647
G1 F6000 X150.497 Y142.527 E1206.88474
G0 F12000 X149.377 Y141.384
G1 F6000 X150.497 Y140.265 E1206.92424
G0 F12000 X149.377 Y139.121
G1 F6000 X150.497 Y138.002 E1206.96373
G0 F12000 X149.377 Y136.859
G1 F6000 X150.497 Y135.739 E1207.00324
G0 F12000 X149.377 Y134.596
G1 F6000 X150.497 Y133.477 E1207.04273
G0 F12000 X149.377 Y132.333
G1 F6000 X150.497 Y131.214 E1207.08223
G0 F12000 X149.377 Y130.070
G1 F6000 X150.497 Y128.951 E1207.12172
G0 F12000 X149.377 Y127.808
G1 F6000 X150.497 Y126.688 E1207.16123
G0 F12000 X149.377 Y125.545
G1 F6000 X150.497 Y124.426 E1207.20073
G0 F12000 X149.377 Y123.282
G1 F6000 X150.497 Y122.163 E1207.24022
G0 F12000 X149.377 Y121.019
G1 F6000 X150.497 Y119.900 E1207.27971
G0 F12000 X149.377 Y118.757
G1 F6000 X150.497 Y117.637 E1207.31922
G0 F12000 X149.377 Y116.494
G1 F6000 X150.497 Y115.375 E1207.35872
G0 F12000 X149.377 Y114.231
G1 F6000 X150.497 Y113.112 E1207.39821
G0 F12000 X149.377 Y111.968
G1 F6000 X150.497 Y110.849 E1207.43770
G0 F12000 X149.377 Y109.706
G1 F6000 X150.497 Y108.586 E1207.47721
G0 F12000 X150.754 Y108.329
G1 F6000 X151.875 Y107.208 E1207.51676
G0 F12000 X153.017 Y108.329
G1 F6000 X154.137 Y107.208 E1207.55629
G0 F12000 X155.279 Y108.329
G1 F6000 X156.400 Y107.208 E1207.59584
G0 F12000 X157.542 Y108.329
G1 F6000 X158.663 Y107.208 E1207.63538
G0 F12000 X159.805 Y108.329
G1 F6000 X160.926 Y107.208 E1207.67493
G0 F12000 X162.068 Y108.329
G1 F6000 X163.188 Y107.208 E1207.71446
G0 F12000 X164.330 Y108.329
G1 F6000 X165.451 Y107.208 E1207.75400
G0 F12000 X166.593 Y108.329
G1 F6000 X167.714 Y107.208 E1207.79355
G0 F12000 X167.771 Y109.414
G1 F6000 X166.652 Y110.533 E1207.83303
G0 F12000 X167.771 Y111.676
G1 F6000 X166.652 Y112.796 E1207.87252
G0 F12000 X167.771 Y113.939
G1 F6000 X166.652 Y115.059 E1207.91201
G0 F12000 X167.771 Y116.202
G1 F6000 X166.652 Y117.321 E1207.95149
G0 F12000 X167.771 Y118.465
G1 F6000 X166.652 Y119.584 E1207.99096
G0 F12000 X167.771 Y120.727
G1 F6000 X166.652 Y121.847 E1208.03046
G0 F12000 X167.771 Y122.990
G1 F6000 X166.652 Y124.109 E1208.06993
G0 F12000 X167.771 Y125.253
G1 F6000 X166.652 Y126.372 E1208.10941
G0 F12000 X167.771 Y127.516
G1 F6000 X166.652 Y128.635 E1208.14888
G0 F12000 X167.771 Y129.778
G1 F6000 X166.652 Y130.898 E1208.18838
G0 F12000 X167.771 Y132.041
G1 F6000 X166.652 Y133.160 E1208.22785
G0 F12000 X167.771 Y134.304
G1 F6000 X166.652 Y135.423 E1208.26733
G0 F12000 X167.771 Y136.567
G1 F6000 X166.652 Y137.686 E1208.30680
G0 F12000 X167.771 Y138.829
G1 F6000 X166.652 Y139.949 E1208.34630
G0 F12000 X167.771 Y141.092
G1 F6000 X166.652 Y142.211 E1208.38577
G0 F12000 X167.771 Y143.355
G1 F6000 X166.652 Y144.474 E1208.42525
G0 F12000 X167.771 Y145.618
G1 F6000 X166.652 Y146.737 E1208.46473
G0 F12000 X167.771 Y147.880
G1 F6000 X166.652 Y149.000 E1208.50422
G0 F12000 X167.771 Y150.143
G1 F6000 X166.652 Y151.262 E1208.54369
G0 F12000 X167.771 Y152.406
G1 F6000 X166.652 Y153.525 E1208.58317
G0 F12000 X167.771 Y154.669
G1 F6000 X166.652 Y155.788 E1208.62265
G0 F12000 X167.771 Y156.931
G1 F6000 X166.652 Y158.051 E1208.66214
G0 F12000 X167.771 Y159.194
G1 F6000 X166.438 Y160.528 E1208.70918
G0 F12000 X165.296 Y159.407
G1 F6000 X164.175 Y160.528 E1208.74873
G0 F12000 X163.033 Y159.407
G1 F6000 X161.912 Y160.528 E1208.78827
G0 F12000 X160.770 Y159.407
G1 F6000 X159.649 Y160.528 E1208.82782
G0 F12000 X149.377 Y107.443
G1 F6000 X149.612 Y107.208 E1208.83611
G0 F12000 X149.238 Y107.069
;TYPE:WALL-INNER
G1 F6000 X167.913 Y107.069 E1209.30196
G1 X167.913 Y160.668 E1210.63899
G1 X149.238 Y160.668 E1211.10484
G1 X149.238 Y107.069 E1212.44188
G0 F12000 X148.838 Y106.669
;TYPE:WALL-OUTER
G1 F6000 X168.313 Y106.669 E1212.92768
G1 X168.313 Y161.068 E1214.28467
G1 X148.838 Y161.068 E1214.77048
G1 X148.838 Y106.669 E1216.12746
G0 F12000 X149.138 Y106.879
G0 X150.426 Y107.809
;TYPE:SKIN
G1 F6000 X149.977 Y108.258 E1216.14330
G0 F12000 X149.977 Y108.823
G1 F6000 X150.992 Y107.809 E1216.17909
G0 F12000 X151.557 Y107.809
G1 F6000 X149.977 Y109.389 E1216.23483
G0 F12000 X149.977 Y109.955
G1 F6000 X152.123 Y107.809 E1216.31054
G0 F12000 X152.689 Y107.809
G1 F6000 X149.977 Y110.520 E1216.40619
G0 F12000 X149.977 Y111.086
G1 F6000 X153.254 Y107.809 E1216.52180
G0 F12000 X153.820 Y107.809
G1 F6000 X149.977 Y111.652 E1216.65737
G0 F12000 X149.977 Y112.217
G1 F6000 X154.386 Y107.809 E1216.81289
G0 F12000 X154.951 Y107.809
G1 F6000 X149.977 Y112.783 E1216.98836
G0 F12000 X149.977 Y113.349
G1 F6000 X155.517 Y107.809 E1217.18380
G0 F12000 X156.083 Y107.809
G1 F6000 X149.977 Y113.914 E1217.39919
G0 F12000 X149.977 Y114.480
G1 F6000 X156.648 Y107.809 E1217.63453
G0 F12000 X157.214 Y107.809
G1 F6000 X149.977 Y115.046 E1217.88983
G0 F12000 X149.977 Y115.611
G1 F6000 X157.780 Y107.809 E1218.16509
G0 F12000 X158.345 Y107.809
G1 F6000 X149.977 Y116.177 E1218.46029
G0 F12000 X149.977 Y116.743
G1 F6000 X158.911 Y107.809 E1218.77546
G0 F12000 X159.477 Y107.809
G1 F6000 X149.977 Y117.309 E1219.11060
G0 F12000 X149.977 Y117.874
G1 F6000 X160.043 Y107.809 E1219.46569
G0 F12000 X160.608 Y107.809
G1 F6000 X149.977 Y118.440 E1219.84072
G0 F12000 X149.977 Y119.006
G1 F6000 X161.174 Y107.809 E1220.23573
G0 F12000 X161.740 Y107.809
G1 F6000 X149.977 Y119.571 E1220.65068
G0 F12000 X149.977 Y120.137
G1 F6000 X162.305 Y107.809 E1221.08559
G0 F12000 X162.871 Y107.809
G1 F6000 X149.977 Y120.703 E1221.54046
G0 F12000 X149.977 Y121.268
G1 F6000 X163.437 Y107.809 E1222.01528
G0 F12000 X164.002 Y107.809
G1 F6000 X149.977 Y121.834 E1222.51005
G0 F12000 X149.977 Y122.400
G1 F6000 X164.568 Y107.809 E1223.02478
G0 F12000 X165.134 Y107.809
G1 F6000 X149.977 Y122.965 E1223.55947
G0 F12000 X149.977 Y123.531
G1 F6000 X165.699 Y107.809 E1224.11411
G0 F12000 X166.265 Y107.809
G1 F6000 X149.977 Y124.097 E1224.68871
G0 F12000 X149.977 Y124.662
G1 F6000 X166.831 Y107.809 E1225.28326
G0 F12000 X167.172 Y108.033
G1 F6000 X149.977 Y125.228 E1225.88986
G0 F12000 X149.977 Y125.794
G1 F6000 X167.172 Y108.599 E1226.49646
G0 F12000 X167.172 Y109.165
G1 F6000 X149.977 Y126.359 E1227.10305
G0 F12000 X149.977 Y126.925
G1 F6000 X167.172 Y109.730 E1227.70965
G0 F12000 X167.172 Y110.296
G1 F6000 X149.977 Y127.491 E1228.31625
G0 F12000 X149.977 Y128.057
G1 F6000 X167.172 Y110.862 E1228.92285
G0 F12000 X167.172 Y111.428
G1 F6000 X149.977 Y128.622 E1229.52943
G0 F12000 X149.977 Y129.188
G1 F6000 X167.172 Y111.993 E1230.13603
G0 F12000 X167.172 Y112.559
G1 F6000 X149.977 Y129.754 E1230.74263
G0 F12000 X149.977 Y130.319
G1 F6000 X167.172 Y113.125 E1231.34921
G0 F12000 X167.172 Y113.690
G1 F6000 X149.977 Y130.885 E1231.95581
G0 F12000 X149.977 Y131.451
G1 F6000 X167.172 Y114.256 E1232.56241
G0 F12000 X167.172 Y114.822
G1 F6000 X149.977 Y132.016 E1233.16899
G0 F12000 X149.977 Y132.582
G1 F6000 X167.172 Y115.387 E1233.77559
G0 F12000 X167.172 Y115.953
G1 F6000 X149.977 Y133.148 E1234.38219
G0 F12000 X149.977 Y133.713
G1 F6000 X167.172 Y116.519 E1234.98878
G0 F12000 X167.172 Y117.084
G1 F6000 X149.978 Y134.278 E1235.59534
G0 F12000 X149.978 Y134.844
G1 F6000 X167.172 Y117.650 E1236.20190
G0 F12000 X167.172 Y118.216
G1 F6000 X149.978 Y135.410 E1236.80847
G0 F12000 X149.978 Y135.975
G1 F6000 X167.172 Y118.781 E1237.41503
G0 F12000 X167.172 Y119.347
G1 F6000 X149.978 Y136.541 E1238.02160
G0 F12000 X149.978 Y137.107
G1 F6000 X167.172 Y119.913 E1238.62816
G0 F12000 X167.172 Y120.478
G1 F6000 X149.978 Y137.672 E1239.23473
G0 F12000 X149.978 Y138.238
G1 F6000 X167.172 Y121.044 E1239.84129
G0 F12000 X167.172 Y121.610
G1 F6000 X149.978 Y138.804 E1240.44786
G0 F12000 X149.978 Y139.370
G1 F6000 X167.172 Y122.176 E1241.05442
G0 F12000 X167.172 Y122.741
G1 F6000 X149.978 Y139.935 E1241.66099
G0 F12000 X149.978 Y140.501
G1 F6000 X167.172 Y123.307 E1242.26755
G0 F12000 X167.172 Y123.873
G1 F6000 X149.978 Y141.067 E1242.87412
G0 F12000 X149.978 Y141.632
G1 F6000 X167.172 Y124.438 E1243.48068
G0 F12000 X167.172 Y125.004
G1 F6000 X149.978 Y142.198 E1244.08725
G0 F12000 X149.978 Y142.764
G1 F6000 X167.172 Y125.570 E1244.69381
G0 F12000 X167.172 Y126.135
G1 F6000 X149.978 Y143.329 E1245.30038
G0 F12000 X149.978 Y143.895
G1 F6000 X167.172 Y126.701 E1245.90694
G0 F12000 X167.172 Y127.267
G1 F6000 X149.978 Y144.461 E1246.51351
G0 F12000 X149.978 Y145.026
G1 F6000 X167.172 Y127.832 E1247.12007
G0 F12000 X167.172 Y128.398
G1 F6000 X149.978 Y145.592 E1247.72664
G0 F12000 X149.978 Y146.158
G1 F6000 X167.172 Y128.964 E1248.33320
G0 F12000 X167.172 Y129.529
G1 F6000 X149.978 Y146.723 E1248.93977
G0 F12000 X149.978 Y147.289
G1 F6000 X167.172 Y130.095 E1249.54633
G0 F12000 X167.172 Y130.661
G1 F6000 X149.978 Y147.855 E1250.15289
G0 F12000 X149.978 Y148.421
G1 F6000 X167.172 Y131.226 E1250.75948
G0 F12000 X167.172 Y131.792
G1 F6000 X149.978 Y148.986 E1251.36604
G0 F12000 X149.978 Y149.552
G1 F6000 X167.172 Y132.358 E1251.97261
G0 F12000 X167.172 Y132.924
G1 F6000 X149.978 Y150.118 E1252.57917
G0 F12000 X149.978 Y150.683
G1 F6000 X167.172 Y133.489 E1253.18574
G0 F12000 X167.172 Y134.055
G1 F6000 X149.978 Y151.249 E1253.79230
G0 F12000 X149.978 Y151.815
G1 F6000 X167.172 Y134.621 E1254.39887
G0 F12000 X167.172 Y135.186
G1 F6000 X149.978 Y152.380 E1255.00543
G0 F12000 X149.978 Y152.946
G1 F6000 X167.172 Y135.752 E1255.61200
G0 F12000 X167.172 Y136.318
G1 F6000 X149.978 Y153.512 E1256.21856
G0 F12000 X149.978 Y154.077
G1 F6000 X167.172 Y136.883 E1256.82513
G0 F12000 X167.172 Y137.449
G1 F6000 X149.978 Y154.643 E1257.43169
G0 F12000 X149.978 Y155.209
G1 F6000 X167.172 Y138.015 E1258.03825
G0 F12000 X167.172 Y138.580
G1 F6000 X149.978 Y155.774 E1258.64482
G0 F12000 X149.978 Y156.340
G1 F6000 X167.172 Y139.146 E1259.25138
G0 F12000 X167.172 Y139.712
G1 F6000 X149.978 Y156.906 E1259.85795
G0 F12000 X149.978 Y157.471
G1 F6000 X167.172 Y140.277 E1260.46451
G0 F12000 X167.172 Y140.843
G1 F6000 X149.978 Y158.037 E1261.07108
G0 F12000 X149.978 Y158.603
G1 F6000 X167.172 Y141.409 E1261.67764
G0 F12000 X167.172 Y141.975
G1 F6000 X149.978 Y159.169 E1262.28421
G0 F12000 X149.978 Y159.734
G1 F6000 X167.172 Y142.540 E1262.89077
G0 F12000 X167.172 Y143.106
G1 F6000 X150.350 Y159.927 E1263.48420
G0 F12000 X150.916 Y159.927
G1 F6000 X167.172 Y143.672 E1264.05765
G0 F12000 X167.172 Y144.237
G1 F6000 X151.482 Y159.927 E1264.61116
G0 F12000 X152.047 Y159.927
G1 F6000 X167.172 Y144.803 E1265.14472
G0 F12000 X167.172 Y145.369
G1 F6000 X152.613 Y159.927 E1265.65831
G0 F12000 X153.179 Y159.927
G1 F6000 X167.172 Y145.934 E1266.15195
G0 F12000 X167.172 Y146.500
G1 F6000 X153.744 Y159.927 E1266.62564
G0 F12000 X154.310 Y159.927
G1 F6000 X167.172 Y147.066 E1267.07937
G0 F12000 X167.172 Y147.631
G1 F6000 X154.876 Y159.927 E1267.51314
G0 F12000 X155.441 Y159.927
G1 F6000 X167.172 Y148.197 E1267.92696
G0 F12000 X167.172 Y148.763
G1 F6000 X156.007 Y159.927 E1268.32082
G0 F12000 X156.573 Y159.927
G1 F6000 X167.172 Y149.328 E1268.69473
G0 F12000 X167.172 Y149.894
G1 F6000 X157.138 Y159.927 E1269.04869
G0 F12000 X157.704 Y159.927
G1 F6000 X167.172 Y150.460 E1269.38268
G0 F12000 X167.172 Y151.025
G1 F6000 X158.270 Y159.927 E1269.69672
G0 F12000 X158.835 Y159.928
G1 F6000 X167.172 Y151.591 E1269.99083
G0 F12000 X167.172 Y152.157
G1 F6000 X159.400 Y159.928 E1270.26499
G0 F12000 X159.966 Y159.928
G1 F6000 X167.172 Y152.723 E1270.51919
G0 F12000 X167.172 Y153.288
G1 F6000 X160.532 Y159.928 E1270.75343
G0 F12000 X161.098 Y159.928
G1 F6000 X167.172 Y153.854 E1270.96771
G0 F12000 X167.172 Y154.420
G1 F6000 X161.663 Y159.928 E1271.16204
G0 F12000 X162.229 Y159.928
G1 F6000 X167.172 Y154.985 E1271.33641
G0 F12000 X167.172 Y155.551
G1 F6000 X162.795 Y159.928 E1271.49082
G0 F12000 X163.360 Y159.928
G1 F6000 X167.172 Y156.117 E1271.62528
G0 F12000 X167.172 Y156.682
G1 F6000 X163.926 Y159.928 E1271.73980
G0 F12000 X164.492 Y159.928
G1 F6000 X167.172 Y157.248 E1271.83434
G0 F12000 X167.172 Y157.814
G1 F6000 X165.057 Y159.928 E1271.90894
G0 F12000 X165.623 Y159.928
